;FLAVOR:Marlin
;TIME:21021
;Filament used: 9.95968m
;Layer height: 0.15
;Generated with Cura_SteamEngine 3.2.1
M104 S210
M109 S210
M82 ;absolute extrusion mode
G28 ;Home
G1 Z15.0 F6000 ;Move the platform down 15mm
;Prime the extruder
G92 E0
G1 F200 E3
G92 E0
;LAYER_COUNT:413
;LAYER:0
M107
G0 F3600 X33.324 Y-39.798 Z0.3
;TYPE:SKIRT
G1 F900 X33.324 Y40.202 E4.03722
G1 X33.284 Y40.833 E4.06913
G1 X33.165 Y41.454 E4.10104
G1 X32.968 Y42.054 E4.13291
G1 X32.697 Y42.626 E4.16485
G1 X32.357 Y43.158 E4.19671
G1 X31.951 Y43.643 E4.22863
G1 X31.488 Y44.073 E4.26052
G1 X30.974 Y44.442 E4.29245
G1 X30.418 Y44.742 E4.32434
G1 X29.829 Y44.97 E4.35621
G1 X29.215 Y45.122 E4.38813
G1 X28.324 Y45.202 E4.43328
G1 X-31.676 Y45.202 E7.46119
G1 X-32.307 Y45.162 E7.4931
G1 X-32.928 Y45.043 E7.52501
G1 X-33.528 Y44.846 E7.55688
G1 X-34.1 Y44.575 E7.58882
G1 X-34.632 Y44.235 E7.62068
G1 X-35.117 Y43.829 E7.6526
G1 X-35.547 Y43.366 E7.68449
G1 X-35.916 Y42.852 E7.71642
G1 X-36.216 Y42.296 E7.74831
G1 X-36.444 Y41.707 E7.78018
G1 X-36.596 Y41.093 E7.8121
G1 X-36.676 Y40.202 E7.85724
G1 X-36.676 Y-39.798 E11.89447
G1 X-36.636 Y-40.429 E11.92638
G1 X-36.517 Y-41.05 E11.95829
G1 X-36.32 Y-41.65 E11.99016
G1 X-36.049 Y-42.222 E12.0221
G1 X-35.709 Y-42.754 E12.05396
G1 X-35.303 Y-43.239 E12.08588
G1 X-34.84 Y-43.669 E12.11777
G1 X-34.326 Y-44.038 E12.1497
G1 X-33.77 Y-44.338 E12.18158
G1 X-33.181 Y-44.566 E12.21345
G1 X-32.567 Y-44.718 E12.24537
G1 X-31.676 Y-44.798 E12.29052
G1 X28.324 Y-44.798 E15.31844
G1 X28.955 Y-44.758 E15.35035
G1 X29.576 Y-44.639 E15.38226
G1 X30.176 Y-44.442 E15.41412
G1 X30.748 Y-44.171 E15.44607
G1 X31.28 Y-43.831 E15.47793
G1 X31.765 Y-43.425 E15.50985
G1 X32.195 Y-42.962 E15.54174
G1 X32.564 Y-42.448 E15.57367
G1 X32.864 Y-41.892 E15.60555
G1 X33.092 Y-41.303 E15.63742
G1 X33.244 Y-40.689 E15.66934
G1 X33.324 Y-39.798 E15.71449
G0 F3600 X32.924 Y-39.798
G1 F900 X32.924 Y40.202 E19.75171
G1 X32.884 Y40.807 E19.78231
G1 X32.765 Y41.401 E19.81288
G1 X32.569 Y41.975 E19.84349
G1 X32.298 Y42.518 E19.87412
G1 X31.959 Y43.021 E19.90473
G1 X31.557 Y43.474 E19.93529
G1 X31.099 Y43.871 E19.96588
G1 X30.592 Y44.204 E19.99649
G1 X30.046 Y44.468 E20.0271
G1 X29.47 Y44.657 E20.05769
G1 X28.874 Y44.769 E20.0883
G1 X28.324 Y44.802 E20.1161
G1 X-31.676 Y44.802 E23.14402
G1 X-32.281 Y44.762 E23.17462
G1 X-32.875 Y44.643 E23.20519
G1 X-33.449 Y44.447 E23.2358
G1 X-33.992 Y44.176 E23.26643
G1 X-34.495 Y43.837 E23.29704
G1 X-34.948 Y43.435 E23.3276
G1 X-35.345 Y42.977 E23.35819
G1 X-35.678 Y42.47 E23.3888
G1 X-35.942 Y41.924 E23.41941
G1 X-36.131 Y41.348 E23.45
G1 X-36.243 Y40.752 E23.4806
G1 X-36.276 Y40.202 E23.50841
G1 X-36.276 Y-39.798 E27.54563
G1 X-36.236 Y-40.403 E27.57623
G1 X-36.117 Y-40.997 E27.6068
G1 X-35.921 Y-41.571 E27.63741
G1 X-35.65 Y-42.114 E27.66804
G1 X-35.311 Y-42.617 E27.69865
G1 X-34.909 Y-43.07 E27.72921
G1 X-34.451 Y-43.467 E27.7598
G1 X-33.944 Y-43.8 E27.79041
G1 X-33.398 Y-44.064 E27.82102
G1 X-32.822 Y-44.253 E27.85161
G1 X-32.226 Y-44.365 E27.88221
G1 X-31.676 Y-44.398 E27.91002
G1 X28.324 Y-44.398 E30.93794
G1 X28.929 Y-44.358 E30.96854
G1 X29.523 Y-44.239 E30.99911
G1 X30.097 Y-44.043 E31.02972
G1 X30.64 Y-43.772 E31.06034
G1 X31.143 Y-43.433 E31.09095
G1 X31.596 Y-43.031 E31.12152
G1 X31.993 Y-42.573 E31.15211
G1 X32.326 Y-42.066 E31.18272
G1 X32.59 Y-41.52 E31.21332
G1 X32.779 Y-40.944 E31.24392
G1 X32.891 Y-40.348 E31.27452
G1 X32.924 Y-39.798 E31.30233
G0 F3600 X32.524 Y-39.798
G1 F900 X32.524 Y40.202 E35.33955
G1 X32.484 Y40.78 E35.36879
G1 X32.365 Y41.347 E35.39803
G1 X32.169 Y41.892 E35.42725
G1 X31.9 Y42.405 E35.45649
G1 X31.563 Y42.876 E35.48571
G1 X31.164 Y43.296 E35.51495
G1 X30.711 Y43.658 E35.54421
G1 X30.213 Y43.953 E35.57342
G1 X29.679 Y44.178 E35.60266
G1 X29.119 Y44.326 E35.63189
G1 X28.324 Y44.402 E35.6722
G1 X-31.676 Y44.402 E38.70012
G1 X-32.254 Y44.362 E38.72935
G1 X-32.821 Y44.243 E38.75859
G1 X-33.366 Y44.047 E38.78782
G1 X-33.879 Y43.778 E38.81705
G1 X-34.35 Y43.441 E38.84628
G1 X-34.77 Y43.042 E38.87551
G1 X-35.132 Y42.589 E38.90478
G1 X-35.427 Y42.091 E38.93399
G1 X-35.652 Y41.557 E38.96323
G1 X-35.8 Y40.997 E38.99246
G1 X-35.876 Y40.202 E39.03276
G1 X-35.876 Y-39.798 E43.06999
G1 X-35.836 Y-40.376 E43.09923
G1 X-35.717 Y-40.943 E43.12846
G1 X-35.521 Y-41.488 E43.15769
G1 X-35.252 Y-42.001 E43.18692
G1 X-34.915 Y-42.472 E43.21615
G1 X-34.516 Y-42.892 E43.24539
G1 X-34.063 Y-43.254 E43.27465
G1 X-33.565 Y-43.549 E43.30386
G1 X-33.031 Y-43.774 E43.3331
G1 X-32.471 Y-43.922 E43.36233
G1 X-31.676 Y-43.998 E43.40264
G1 X28.324 Y-43.998 E46.43055
G1 X28.902 Y-43.958 E46.45979
G1 X29.469 Y-43.839 E46.48903
G1 X30.014 Y-43.643 E46.51826
G1 X30.527 Y-43.374 E46.54749
G1 X30.998 Y-43.037 E46.57672
G1 X31.418 Y-42.638 E46.60595
G1 X31.78 Y-42.185 E46.63522
G1 X32.075 Y-41.687 E46.66443
G1 X32.3 Y-41.153 E46.69367
G1 X32.448 Y-40.593 E46.7229
G1 X32.524 Y-39.798 E46.7632
G0 F3600 X32.124 Y-39.798
G1 F900 X32.124 Y40.202 E50.80043
G1 X32.084 Y40.752 E50.82826
G1 X31.965 Y41.29 E50.85606
G1 X31.769 Y41.805 E50.88387
G1 X31.501 Y42.286 E50.91166
G1 X31.167 Y42.724 E50.93945
G1 X30.772 Y43.108 E50.96726
G1 X30.326 Y43.432 E50.99508
G1 X29.838 Y43.687 E51.02286
G1 X29.318 Y43.87 E51.05068
G1 X28.777 Y43.975 E51.07849
G1 X28.324 Y44.002 E51.10139
G1 X-31.676 Y44.002 E54.12931
G1 X-32.226 Y43.962 E54.15714
G1 X-32.764 Y43.843 E54.18495
G1 X-33.279 Y43.647 E54.21276
G1 X-33.76 Y43.379 E54.24054
G1 X-34.198 Y43.045 E54.26834
G1 X-34.582 Y42.65 E54.29614
G1 X-34.906 Y42.204 E54.32396
G1 X-35.161 Y41.716 E54.35175
G1 X-35.344 Y41.196 E54.37957
G1 X-35.449 Y40.655 E54.40738
G1 X-35.476 Y40.202 E54.43028
G1 X-35.476 Y-39.798 E58.4675
G1 X-35.436 Y-40.348 E58.49533
G1 X-35.317 Y-40.886 E58.52314
G1 X-35.121 Y-41.401 E58.55095
G1 X-34.853 Y-41.882 E58.57874
G1 X-34.519 Y-42.32 E58.60653
G1 X-34.124 Y-42.704 E58.63433
G1 X-33.678 Y-43.028 E58.66215
G1 X-33.19 Y-43.283 E58.68994
G1 X-32.67 Y-43.466 E58.71776
G1 X-32.129 Y-43.571 E58.74557
G1 X-31.676 Y-43.598 E58.76847
G1 X28.324 Y-43.598 E61.79639
G1 X28.874 Y-43.558 E61.82422
G1 X29.412 Y-43.439 E61.85203
G1 X29.927 Y-43.243 E61.87983
G1 X30.408 Y-42.975 E61.90762
G1 X30.846 Y-42.641 E61.93542
G1 X31.23 Y-42.246 E61.96322
G1 X31.554 Y-41.8 E61.99104
G1 X31.809 Y-41.312 E62.01883
G1 X31.992 Y-40.792 E62.04665
G1 X32.097 Y-40.251 E62.07446
G1 X32.124 Y-39.798 E62.09736
G0 F3600 X31.724 Y-39.798
G1 F900 X31.724 Y40.202 E66.13458
G1 X31.684 Y40.722 E66.1609
G1 X31.565 Y41.229 E66.18718
G1 X31.37 Y41.712 E66.21347
G1 X31.104 Y42.16 E66.23976
G1 X30.772 Y42.562 E66.26607
G1 X30.382 Y42.908 E66.29238
G1 X29.944 Y43.191 E66.3187
G1 X29.469 Y43.404 E66.34497
G1 X28.966 Y43.541 E66.37128
G1 X28.324 Y43.602 E66.40382
G1 X-31.676 Y43.602 E69.43174
G1 X-32.196 Y43.562 E69.45806
G1 X-32.703 Y43.443 E69.48434
G1 X-33.186 Y43.248 E69.51063
G1 X-33.634 Y42.982 E69.53692
G1 X-34.036 Y42.65 E69.56323
G1 X-34.382 Y42.26 E69.58954
G1 X-34.665 Y41.822 E69.61586
G1 X-34.878 Y41.347 E69.64213
G1 X-35.015 Y40.844 E69.66844
G1 X-35.076 Y40.202 E69.70098
G1 X-35.076 Y-39.798 E73.73821
G1 X-35.036 Y-40.318 E73.76453
G1 X-34.917 Y-40.825 E73.79081
G1 X-34.722 Y-41.308 E73.8171
G1 X-34.456 Y-41.756 E73.84339
G1 X-34.124 Y-42.158 E73.8697
G1 X-33.734 Y-42.504 E73.89601
G1 X-33.296 Y-42.787 E73.92233
G1 X-32.821 Y-43 E73.9486
G1 X-32.318 Y-43.137 E73.97491
G1 X-31.676 Y-43.198 E74.00745
G1 X28.324 Y-43.198 E77.03537
G1 X28.844 Y-43.158 E77.06169
G1 X29.351 Y-43.039 E77.08797
G1 X29.834 Y-42.844 E77.11426
G1 X30.282 Y-42.578 E77.14055
G1 X30.684 Y-42.246 E77.16686
G1 X31.03 Y-41.856 E77.19317
G1 X31.313 Y-41.418 E77.21949
G1 X31.526 Y-40.943 E77.24576
G1 X31.663 Y-40.44 E77.27207
G1 X31.724 Y-39.798 E77.30461
G0 F3600 X31.324 Y-39.798
G1 F900 X31.324 Y40.202 E81.34184
G1 X31.284 Y40.69 E81.36655
G1 X31.165 Y41.165 E81.39126
G1 X30.971 Y41.614 E81.41594
G1 X30.706 Y42.026 E81.44066
G1 X30.378 Y42.389 E81.46535
G1 X29.995 Y42.694 E81.49006
G1 X29.567 Y42.932 E81.51477
G1 X29.107 Y43.098 E81.53945
G1 X28.626 Y43.187 E81.56414
G1 X28.324 Y43.202 E81.5794
G1 X-31.676 Y43.202 E84.60732
G1 X-32.164 Y43.162 E84.63203
G1 X-32.639 Y43.043 E84.65674
G1 X-33.088 Y42.849 E84.68142
G1 X-33.5 Y42.584 E84.70614
G1 X-33.863 Y42.256 E84.73083
G1 X-34.168 Y41.873 E84.75554
G1 X-34.406 Y41.445 E84.78025
G1 X-34.572 Y40.985 E84.80493
G1 X-34.661 Y40.504 E84.82962
G1 X-34.676 Y40.202 E84.84488
G1 X-34.676 Y-39.798 E88.8821
G1 X-34.636 Y-40.286 E88.90681
G1 X-34.517 Y-40.761 E88.93152
G1 X-34.323 Y-41.21 E88.95621
G1 X-34.058 Y-41.622 E88.98093
G1 X-33.73 Y-41.985 E89.00562
G1 X-33.347 Y-42.29 E89.03033
G1 X-32.919 Y-42.528 E89.05504
G1 X-32.459 Y-42.694 E89.07972
G1 X-31.978 Y-42.783 E89.10441
G1 X-31.676 Y-42.798 E89.11966
G1 X28.324 Y-42.798 E92.14758
G1 X28.812 Y-42.758 E92.17229
G1 X29.287 Y-42.639 E92.197
G1 X29.736 Y-42.445 E92.22169
G1 X30.148 Y-42.18 E92.24641
G1 X30.511 Y-41.852 E92.2711
G1 X30.816 Y-41.469 E92.29581
G1 X31.054 Y-41.041 E92.32052
G1 X31.22 Y-40.581 E92.3452
G1 X31.309 Y-40.1 E92.36989
G1 X31.324 Y-39.798 E92.38515
G0 F3600 X30.924 Y-39.798
G1 F900 X30.924 Y40.202 E96.42237
G1 X30.884 Y40.656 E96.44537
G1 X30.766 Y41.096 E96.46836
G1 X30.572 Y41.508 E96.49134
G1 X30.309 Y41.881 E96.51437
G1 X29.986 Y42.202 E96.53735
G1 X29.611 Y42.461 E96.56035
G1 X29.197 Y42.651 E96.58334
G1 X28.756 Y42.766 E96.60634
G1 X28.324 Y42.802 E96.62822
G1 X-31.676 Y42.802 E99.65613
G1 X-32.13 Y42.762 E99.67913
G1 X-32.57 Y42.644 E99.70212
G1 X-32.982 Y42.45 E99.72511
G1 X-33.355 Y42.187 E99.74814
G1 X-33.676 Y41.864 E99.77112
G1 X-33.935 Y41.489 E99.79412
G1 X-34.125 Y41.075 E99.81711
G1 X-34.24 Y40.634 E99.84011
G1 X-34.276 Y40.202 E99.86198
G1 X-34.276 Y-39.798 E103.89921
G1 X-34.236 Y-40.252 E103.92221
G1 X-34.118 Y-40.692 E103.9452
G1 X-33.924 Y-41.104 E103.96818
G1 X-33.661 Y-41.477 E103.99121
G1 X-33.338 Y-41.798 E104.01419
G1 X-32.963 Y-42.057 E104.03719
G1 X-32.549 Y-42.247 E104.06018
G1 X-32.108 Y-42.362 E104.08318
G1 X-31.676 Y-42.398 E104.10505
G1 X28.324 Y-42.398 E107.13297
G1 X28.778 Y-42.358 E107.15597
G1 X29.218 Y-42.24 E107.17896
G1 X29.63 Y-42.046 E107.20194
G1 X30.003 Y-41.783 E107.22497
G1 X30.324 Y-41.46 E107.24795
G1 X30.583 Y-41.085 E107.27095
G1 X30.773 Y-40.671 E107.29394
G1 X30.888 Y-40.23 E107.31694
G1 X30.924 Y-39.798 E107.33882
G0 F3600 X30.524 Y-39.798
G1 F900 X30.524 Y40.202 E111.37604
G1 X30.484 Y40.619 E111.39718
G1 X30.366 Y41.021 E111.41833
G1 X30.173 Y41.393 E111.43947
G1 X29.914 Y41.722 E111.46061
G1 X29.597 Y41.996 E111.48175
G1 X29.234 Y42.205 E111.50289
G1 X28.837 Y42.341 E111.52407
G1 X28.324 Y42.402 E111.55014
G1 X-31.676 Y42.402 E114.57806
G1 X-32.093 Y42.362 E114.5992
G1 X-32.495 Y42.244 E114.62034
G1 X-32.867 Y42.051 E114.64149
G1 X-33.196 Y41.792 E114.66262
G1 X-33.47 Y41.475 E114.68376
G1 X-33.679 Y41.112 E114.7049
G1 X-33.815 Y40.715 E114.72608
G1 X-33.876 Y40.202 E114.75215
G1 X-33.876 Y-39.798 E118.78938
G1 X-33.836 Y-40.215 E118.81052
G1 X-33.718 Y-40.617 E118.83166
G1 X-33.525 Y-40.989 E118.85281
G1 X-33.266 Y-41.318 E118.87394
G1 X-32.949 Y-41.592 E118.89508
G1 X-32.586 Y-41.801 E118.91622
G1 X-32.189 Y-41.937 E118.9374
G1 X-31.676 Y-41.998 E118.96347
G1 X28.324 Y-41.998 E121.99139
G1 X28.741 Y-41.958 E122.01253
G1 X29.143 Y-41.84 E122.03367
G1 X29.515 Y-41.647 E122.05482
G1 X29.844 Y-41.388 E122.07595
G1 X30.118 Y-41.071 E122.0971
G1 X30.327 Y-40.708 E122.11824
G1 X30.463 Y-40.311 E122.13941
G1 X30.524 Y-39.798 E122.16549
G0 F3600 X30.124 Y-39.798
G1 F900 X30.124 Y40.202 E126.20271
G1 X30.084 Y40.579 E126.22184
G1 X29.966 Y40.939 E126.24096
G1 X29.776 Y41.266 E126.26005
G1 X29.521 Y41.547 E126.27919
G1 X29.212 Y41.767 E126.29834
G1 X28.865 Y41.919 E126.31745
G1 X28.324 Y42.002 E126.34508
G1 X-31.676 Y42.002 E129.37299
G1 X-32.053 Y41.962 E129.39213
G1 X-32.413 Y41.844 E129.41124
G1 X-32.74 Y41.654 E129.43033
G1 X-33.021 Y41.399 E129.44948
G1 X-33.241 Y41.09 E129.46862
G1 X-33.393 Y40.743 E129.48774
G1 X-33.476 Y40.202 E129.51536
G1 X-33.476 Y-39.798 E133.55259
G1 X-33.436 Y-40.175 E133.57172
G1 X-33.318 Y-40.535 E133.59084
G1 X-33.128 Y-40.862 E133.60992
G1 X-32.873 Y-41.143 E133.62907
G1 X-32.564 Y-41.363 E133.64821
G1 X-32.217 Y-41.515 E133.66733
G1 X-31.676 Y-41.598 E133.69495
G1 X28.324 Y-41.598 E136.72287
G1 X28.701 Y-41.558 E136.742
G1 X29.061 Y-41.44 E136.76112
G1 X29.388 Y-41.25 E136.78021
G1 X29.669 Y-40.995 E136.79936
G1 X29.889 Y-40.686 E136.8185
G1 X30.041 Y-40.339 E136.83762
G1 X30.124 Y-39.798 E136.86524
G0 F3600 X29.724 Y-39.798
G1 F900 X29.724 Y40.202 E140.90246
G1 X29.684 Y40.534 E140.91934
G1 X29.567 Y40.846 E140.93615
G1 X29.379 Y41.123 E140.95305
G1 X29.131 Y41.346 E140.96988
G1 X28.837 Y41.505 E140.98675
G1 X28.513 Y41.589 E141.00364
G1 X28.324 Y41.602 E141.0132
G1 X-31.676 Y41.602 E144.04112
G1 X-32.008 Y41.562 E144.05799
G1 X-32.32 Y41.445 E144.07481
G1 X-32.597 Y41.257 E144.0917
G1 X-32.82 Y41.009 E144.10853
G1 X-32.979 Y40.715 E144.1254
G1 X-33.063 Y40.391 E144.14229
G1 X-33.076 Y40.202 E144.15185
G1 X-33.076 Y-39.798 E148.18908
G1 X-33.036 Y-40.13 E148.20595
G1 X-32.919 Y-40.442 E148.22277
G1 X-32.731 Y-40.719 E148.23966
G1 X-32.483 Y-40.942 E148.25649
G1 X-32.189 Y-41.101 E148.27336
G1 X-31.865 Y-41.185 E148.29025
G1 X-31.676 Y-41.198 E148.29981
G1 X28.324 Y-41.198 E151.32773
G1 X28.656 Y-41.158 E151.34461
G1 X28.968 Y-41.041 E151.36142
G1 X29.245 Y-40.853 E151.37832
G1 X29.468 Y-40.605 E151.39515
G1 X29.627 Y-40.311 E151.41201
G1 X29.711 Y-39.987 E151.42891
G1 X29.724 Y-39.798 E151.43847
G0 F3600 X29.324 Y-39.798
G1 F900 X29.324 Y40.202 E155.47569
G1 X29.284 Y40.481 E155.48991
G1 X29.168 Y40.738 E155.50414
G1 X28.985 Y40.953 E155.51839
G1 X28.749 Y41.107 E155.53261
G1 X28.479 Y41.19 E155.54687
G1 X28.324 Y41.202 E155.55471
G1 X-31.676 Y41.202 E158.58263
G1 X-31.955 Y41.162 E158.59686
G1 X-32.212 Y41.046 E158.61109
G1 X-32.427 Y40.863 E158.62533
G1 X-32.581 Y40.627 E158.63955
G1 X-32.664 Y40.357 E158.65381
G1 X-32.676 Y40.202 E158.66166
G1 X-32.676 Y-39.798 E162.69888
G1 X-32.636 Y-40.077 E162.7131
G1 X-32.52 Y-40.334 E162.72733
G1 X-32.337 Y-40.549 E162.74158
G1 X-32.101 Y-40.703 E162.7558
G1 X-31.831 Y-40.786 E162.77006
G1 X-31.676 Y-40.798 E162.7779
G1 X28.324 Y-40.798 E165.80582
G1 X28.603 Y-40.758 E165.82004
G1 X28.86 Y-40.642 E165.83427
G1 X29.075 Y-40.459 E165.84852
G1 X29.229 Y-40.223 E165.86274
G1 X29.312 Y-39.953 E165.877
G1 X29.324 Y-39.798 E165.88484
G0 F3600 X28.924 Y-39.798
G1 F900 X28.924 Y40.202 E169.92207
G1 X28.884 Y40.417 E169.9331
G1 X28.771 Y40.603 E169.94409
G1 X28.598 Y40.736 E169.9551
G1 X28.324 Y40.802 E169.96932
G1 X-31.676 Y40.802 E172.99724
G1 X-31.891 Y40.762 E173.00828
G1 X-32.077 Y40.649 E173.01926
G1 X-32.21 Y40.476 E173.03027
G1 X-32.276 Y40.202 E173.04449
G1 X-32.276 Y-39.798 E177.08172
G1 X-32.236 Y-40.013 E177.09275
G1 X-32.123 Y-40.199 E177.10374
G1 X-31.95 Y-40.332 E177.11475
G1 X-31.676 Y-40.398 E177.12897
G1 X28.324 Y-40.398 E180.15689
G1 X28.539 Y-40.358 E180.16793
G1 X28.725 Y-40.245 E180.17891
G1 X28.858 Y-40.072 E180.18992
G1 X28.924 Y-39.798 E180.20415
G0 F3600 X28.524 Y-39.798
G1 F900 X28.524 Y40.202 E184.24137
G1 X28.485 Y40.321 E184.24769
G1 X28.324 Y40.402 E184.25678
G1 X-31.676 Y40.402 E187.2847
G1 X-31.795 Y40.363 E187.29102
G1 X-31.876 Y40.202 E187.30012
G1 X-31.876 Y-39.798 E191.33734
G1 X-31.837 Y-39.917 E191.34366
G1 X-31.676 Y-39.998 E191.35276
G1 X28.324 Y-39.998 E194.38067
G1 X28.443 Y-39.959 E194.38699
G1 X28.524 Y-39.798 E194.39609
G1 F30000 E190.29609
G0 F3600 X27.71 Y-39.184
G0 X27.654 Y39.532
G0 X28.124 Y40.002
;TYPE:WALL-OUTER
G1 F30000 E194.39609
G1 F900 X-31.476 Y40.002 E197.40382
G1 X-31.476 Y-39.598 E201.42086
G1 X28.124 Y-39.598 E204.42859
G1 X28.124 Y40.002 E208.44563
G0 F3600 X27.924 Y40.002
G0 X27.724 Y39.602
;TYPE:WALL-INNER
G1 F900 X-31.076 Y39.602 E211.41299
G1 X-31.076 Y-39.198 E215.38965
G1 X27.724 Y-39.198 E218.35701
G1 X27.724 Y39.602 E222.33368
G0 F3600 X27.334 Y39.212
;TYPE:SKIN
G1 F900 X-30.686 Y39.212 E225.26168
G1 X-30.686 Y-38.808 E229.19898
G1 X27.334 Y-38.808 E232.12698
G1 X27.334 Y39.212 E236.06428
