;FLAVOR:Marlin
;TIME:11739
;Filament used: 5.58293m
;Layer height: 0.15
;Generated with Cura_SteamEngine 3.2.1
M104 S210
M109 S210
M82 ;absolute extrusion mode
G28 ;Home
G1 Z15.0 F6000 ;Move the platform down 15mm
;Prime the extruder
G92 E0
G1 F200 E3
G92 E0
;LAYER_COUNT:170
;LAYER:0
M107
G0 F3600 X5.078 Y-10.152 Z0.3
;TYPE:SKIRT
G1 F900 X4.506 Y-10.423 E0.03194
G1 X3.974 Y-10.763 E0.0638
G1 X3.489 Y-11.169 E0.09572
G1 X3.059 Y-11.632 E0.12761
G1 X2.69 Y-12.146 E0.15954
G1 X2.39 Y-12.702 E0.19143
G1 X2.162 Y-13.291 E0.2233
G1 X2.01 Y-13.905 E0.25522
G1 X1.93 Y-14.796 E0.30037
G1 X1.93 Y-40.296 E1.58723
G1 X1.97 Y-40.927 E1.61914
G1 X2.089 Y-41.548 E1.65105
G1 X2.286 Y-42.148 E1.68292
G1 X2.557 Y-42.72 E1.71486
G1 X2.897 Y-43.252 E1.74672
G1 X3.303 Y-43.737 E1.77864
G1 X3.766 Y-44.167 E1.81053
G1 X4.28 Y-44.536 E1.84246
G1 X4.836 Y-44.836 E1.87434
G1 X5.425 Y-45.064 E1.90622
G1 X6.039 Y-45.216 E1.93814
G1 X6.93 Y-45.296 E1.98328
G1 X24.93 Y-45.296 E2.89166
G1 X25.561 Y-45.256 E2.92356
G1 X26.182 Y-45.137 E2.95547
G1 X26.782 Y-44.94 E2.98734
G1 X27.354 Y-44.669 E3.01929
G1 X27.886 Y-44.329 E3.05115
G1 X28.371 Y-43.923 E3.08307
G1 X28.801 Y-43.46 E3.11495
G1 X29.17 Y-42.946 E3.14689
G1 X29.47 Y-42.39 E3.17877
G1 X29.698 Y-41.801 E3.21064
G1 X29.85 Y-41.187 E3.24256
G1 X29.93 Y-40.296 E3.28771
G1 X29.93 Y-14.796 E4.57457
G1 X29.89 Y-14.165 E4.60648
G1 X29.771 Y-13.544 E4.63839
G1 X29.574 Y-12.944 E4.67026
G1 X29.303 Y-12.372 E4.7022
G1 X28.963 Y-11.84 E4.73406
G1 X28.557 Y-11.355 E4.76598
G1 X28.094 Y-10.925 E4.79787
G1 X27.58 Y-10.556 E4.8298
G1 X27.024 Y-10.256 E4.86169
G1 X26.435 Y-10.028 E4.89356
G1 X25.821 Y-9.876 E4.92548
G1 X24.93 Y-9.796 E4.97063
G1 X6.93 Y-9.796 E5.879
G1 X6.299 Y-9.836 E5.91091
G1 X5.678 Y-9.955 E5.94282
G1 X5.078 Y-10.152 E5.97469
G0 F3600 X5.157 Y-10.551
G1 F900 X4.614 Y-10.822 E6.00531
G1 X4.111 Y-11.161 E6.03592
G1 X3.658 Y-11.563 E6.06649
G1 X3.261 Y-12.021 E6.09708
G1 X2.928 Y-12.528 E6.12769
G1 X2.664 Y-13.074 E6.15829
G1 X2.475 Y-13.65 E6.18889
G1 X2.363 Y-14.246 E6.21949
G1 X2.33 Y-14.796 E6.2473
G1 X2.33 Y-40.296 E7.53416
G1 X2.37 Y-40.901 E7.56476
G1 X2.489 Y-41.495 E7.59533
G1 X2.685 Y-42.069 E7.62594
G1 X2.956 Y-42.612 E7.65657
G1 X3.295 Y-43.115 E7.68718
G1 X3.697 Y-43.568 E7.71774
G1 X4.155 Y-43.965 E7.74833
G1 X4.662 Y-44.298 E7.77894
G1 X5.208 Y-44.562 E7.80955
G1 X5.784 Y-44.751 E7.84014
G1 X6.38 Y-44.863 E7.87074
G1 X6.93 Y-44.896 E7.89855
G1 X24.93 Y-44.896 E8.80692
G1 X25.535 Y-44.856 E8.83752
G1 X26.129 Y-44.737 E8.86809
G1 X26.703 Y-44.541 E8.8987
G1 X27.246 Y-44.27 E8.92933
G1 X27.749 Y-43.931 E8.95994
G1 X28.202 Y-43.529 E8.9905
G1 X28.599 Y-43.071 E9.02109
G1 X28.932 Y-42.564 E9.0517
G1 X29.196 Y-42.018 E9.08231
G1 X29.385 Y-41.442 E9.1129
G1 X29.497 Y-40.846 E9.14351
G1 X29.53 Y-40.296 E9.17131
G1 X29.53 Y-14.796 E10.45818
G1 X29.49 Y-14.191 E10.48877
G1 X29.371 Y-13.597 E10.51935
G1 X29.175 Y-13.023 E10.54996
G1 X28.904 Y-12.48 E10.58058
G1 X28.565 Y-11.977 E10.61119
G1 X28.163 Y-11.524 E10.64176
G1 X27.705 Y-11.127 E10.67234
G1 X27.198 Y-10.794 E10.70296
G1 X26.652 Y-10.53 E10.73356
G1 X26.076 Y-10.341 E10.76415
G1 X25.48 Y-10.229 E10.79476
G1 X24.93 Y-10.196 E10.82256
G1 X6.93 Y-10.196 E11.73094
G1 X6.325 Y-10.236 E11.76154
G1 X5.731 Y-10.355 E11.79211
G1 X5.157 Y-10.551 E11.82272
G0 F3600 X5.24 Y-10.951
G1 F900 X4.727 Y-11.22 E11.85195
G1 X4.256 Y-11.557 E11.88118
G1 X3.836 Y-11.956 E11.91041
G1 X3.474 Y-12.409 E11.93968
G1 X3.179 Y-12.907 E11.96889
G1 X2.954 Y-13.441 E11.99813
G1 X2.806 Y-14.001 E12.02736
G1 X2.73 Y-14.796 E12.06766
G1 X2.73 Y-40.296 E13.35453
G1 X2.77 Y-40.874 E13.38377
G1 X2.889 Y-41.441 E13.413
G1 X3.085 Y-41.986 E13.44223
G1 X3.354 Y-42.499 E13.47146
G1 X3.691 Y-42.97 E13.50069
G1 X4.09 Y-43.39 E13.52993
G1 X4.543 Y-43.752 E13.55919
G1 X5.041 Y-44.047 E13.5884
G1 X5.575 Y-44.272 E13.61764
G1 X6.135 Y-44.42 E13.64687
G1 X6.93 Y-44.496 E13.68718
G1 X24.93 Y-44.496 E14.59555
G1 X25.508 Y-44.456 E14.62479
G1 X26.075 Y-44.337 E14.65403
G1 X26.62 Y-44.141 E14.68326
G1 X27.133 Y-43.872 E14.71249
G1 X27.604 Y-43.535 E14.74171
G1 X28.024 Y-43.136 E14.77095
G1 X28.386 Y-42.683 E14.80021
G1 X28.681 Y-42.185 E14.82942
G1 X28.906 Y-41.651 E14.85867
G1 X29.054 Y-41.091 E14.8879
G1 X29.13 Y-40.296 E14.9282
G1 X29.13 Y-14.796 E16.21507
G1 X29.09 Y-14.218 E16.2443
G1 X28.971 Y-13.651 E16.27354
G1 X28.775 Y-13.106 E16.30277
G1 X28.506 Y-12.593 E16.332
G1 X28.169 Y-12.122 E16.36123
G1 X27.77 Y-11.702 E16.39046
G1 X27.317 Y-11.34 E16.41973
G1 X26.819 Y-11.045 E16.44894
G1 X26.285 Y-10.82 E16.47818
G1 X25.725 Y-10.672 E16.50741
G1 X24.93 Y-10.596 E16.54771
G1 X6.93 Y-10.596 E17.45609
G1 X6.352 Y-10.636 E17.48533
G1 X5.785 Y-10.755 E17.51456
G1 X5.24 Y-10.951 E17.54379
G0 F3600 X5.327 Y-11.351
G1 F900 X4.846 Y-11.619 E17.57158
G1 X4.408 Y-11.953 E17.59938
G1 X4.024 Y-12.348 E17.62718
G1 X3.7 Y-12.794 E17.655
G1 X3.445 Y-13.282 E17.68278
G1 X3.262 Y-13.802 E17.7106
G1 X3.157 Y-14.343 E17.73842
G1 X3.13 Y-14.796 E17.76132
G1 X3.13 Y-40.296 E19.04818
G1 X3.17 Y-40.846 E19.07601
G1 X3.289 Y-41.384 E19.10382
G1 X3.485 Y-41.899 E19.13163
G1 X3.753 Y-42.38 E19.15941
G1 X4.087 Y-42.818 E19.18721
G1 X4.482 Y-43.202 E19.21501
G1 X4.928 Y-43.526 E19.24283
G1 X5.416 Y-43.781 E19.27062
G1 X5.936 Y-43.964 E19.29844
G1 X6.477 Y-44.069 E19.32625
G1 X6.93 Y-44.096 E19.34915
G1 X24.93 Y-44.096 E20.25753
G1 X25.48 Y-44.056 E20.28535
G1 X26.018 Y-43.937 E20.31316
G1 X26.533 Y-43.741 E20.34097
G1 X27.014 Y-43.473 E20.36876
G1 X27.452 Y-43.139 E20.39655
G1 X27.836 Y-42.744 E20.42435
G1 X28.16 Y-42.298 E20.45217
G1 X28.415 Y-41.81 E20.47996
G1 X28.598 Y-41.29 E20.50778
G1 X28.703 Y-40.749 E20.53559
G1 X28.73 Y-40.296 E20.55849
G1 X28.73 Y-14.796 E21.84536
G1 X28.69 Y-14.246 E21.87319
G1 X28.571 Y-13.708 E21.90099
G1 X28.375 Y-13.193 E21.9288
G1 X28.107 Y-12.712 E21.95659
G1 X27.773 Y-12.274 E21.98439
G1 X27.378 Y-11.89 E22.01219
G1 X26.932 Y-11.566 E22.04001
G1 X26.444 Y-11.311 E22.06779
G1 X25.924 Y-11.128 E22.09561
G1 X25.383 Y-11.023 E22.12342
G1 X24.93 Y-10.996 E22.14633
G1 X6.93 Y-10.996 E23.0547
G1 X6.38 Y-11.036 E23.08253
G1 X5.842 Y-11.155 E23.11034
G1 X5.327 Y-11.351 E23.13815
G0 F3600 X5.903 Y-11.555
G1 F900 X5.42 Y-11.75 E23.16443
G1 X4.972 Y-12.016 E23.19072
G1 X4.57 Y-12.348 E23.21704
G1 X4.224 Y-12.738 E23.24335
G1 X3.941 Y-13.176 E23.26966
G1 X3.728 Y-13.651 E23.29593
G1 X3.591 Y-14.154 E23.32224
G1 X3.53 Y-14.796 E23.35479
G1 X3.53 Y-40.296 E24.64165
G1 X3.57 Y-40.816 E24.66797
G1 X3.689 Y-41.323 E24.69425
G1 X3.884 Y-41.806 E24.72054
G1 X4.15 Y-42.254 E24.74683
G1 X4.482 Y-42.656 E24.77314
G1 X4.872 Y-43.002 E24.79945
G1 X5.31 Y-43.285 E24.82577
G1 X5.785 Y-43.498 E24.85204
G1 X6.288 Y-43.635 E24.87835
G1 X6.93 Y-43.696 E24.91089
G1 X24.93 Y-43.696 E25.81927
G1 X25.45 Y-43.656 E25.84559
G1 X25.957 Y-43.537 E25.87187
G1 X26.44 Y-43.342 E25.89816
G1 X26.888 Y-43.076 E25.92445
G1 X27.29 Y-42.744 E25.95076
G1 X27.636 Y-42.354 E25.97707
G1 X27.919 Y-41.916 E26.00339
G1 X28.132 Y-41.441 E26.02966
G1 X28.269 Y-40.938 E26.05597
G1 X28.33 Y-40.296 E26.08851
G1 X28.33 Y-14.796 E27.37538
G1 X28.29 Y-14.276 E27.4017
G1 X28.171 Y-13.769 E27.42798
G1 X27.976 Y-13.286 E27.45426
G1 X27.71 Y-12.838 E27.48056
G1 X27.378 Y-12.436 E27.50687
G1 X26.988 Y-12.09 E27.53318
G1 X26.55 Y-11.807 E27.5595
G1 X26.075 Y-11.594 E27.58577
G1 X25.572 Y-11.457 E27.61208
G1 X24.93 Y-11.396 E27.64462
G1 X6.93 Y-11.396 E28.553
G1 X6.41 Y-11.436 E28.57931
G1 X5.903 Y-11.555 E28.6056
G0 F3600 X5.967 Y-11.955
G1 F900 X5.518 Y-12.149 E28.63028
G1 X5.106 Y-12.414 E28.655
G1 X4.743 Y-12.742 E28.67969
G1 X4.438 Y-13.125 E28.7044
G1 X4.2 Y-13.553 E28.72911
G1 X4.034 Y-14.013 E28.75379
G1 X3.945 Y-14.494 E28.77848
G1 X3.93 Y-14.796 E28.79374
G1 X3.93 Y-40.296 E30.0806
G1 X3.97 Y-40.784 E30.10531
G1 X4.089 Y-41.259 E30.13002
G1 X4.283 Y-41.708 E30.15471
G1 X4.548 Y-42.12 E30.17943
G1 X4.876 Y-42.483 E30.20412
G1 X5.259 Y-42.788 E30.22883
G1 X5.687 Y-43.026 E30.25354
G1 X6.147 Y-43.192 E30.27822
G1 X6.628 Y-43.281 E30.30291
G1 X6.93 Y-43.296 E30.31816
G1 X24.93 Y-43.296 E31.22654
G1 X25.418 Y-43.256 E31.25125
G1 X25.893 Y-43.137 E31.27596
G1 X26.342 Y-42.943 E31.30065
G1 X26.754 Y-42.678 E31.32537
G1 X27.117 Y-42.35 E31.35006
G1 X27.422 Y-41.967 E31.37476
G1 X27.66 Y-41.539 E31.39948
G1 X27.826 Y-41.079 E31.42416
G1 X27.915 Y-40.598 E31.44884
G1 X27.93 Y-40.296 E31.4641
G1 X27.93 Y-14.796 E32.75097
G1 X27.89 Y-14.308 E32.77568
G1 X27.771 Y-13.833 E32.80039
G1 X27.577 Y-13.384 E32.82507
G1 X27.312 Y-12.972 E32.84979
G1 X26.984 Y-12.609 E32.87448
G1 X26.601 Y-12.304 E32.89919
G1 X26.173 Y-12.066 E32.92391
G1 X25.713 Y-11.9 E32.94858
G1 X25.232 Y-11.811 E32.97327
G1 X24.93 Y-11.796 E32.98853
G1 X6.93 Y-11.796 E33.89691
G1 X6.442 Y-11.836 E33.92161
G1 X5.967 Y-11.955 E33.94633
G0 F3600 X6.036 Y-12.354
G1 F900 X5.624 Y-12.548 E33.96931
G1 X5.251 Y-12.811 E33.99234
G1 X4.93 Y-13.134 E34.01532
G1 X4.671 Y-13.509 E34.03832
G1 X4.481 Y-13.923 E34.06131
G1 X4.366 Y-14.364 E34.08431
G1 X4.33 Y-14.796 E34.10618
G1 X4.33 Y-40.296 E35.39305
G1 X4.37 Y-40.75 E35.41605
G1 X4.488 Y-41.19 E35.43904
G1 X4.682 Y-41.602 E35.46202
G1 X4.945 Y-41.975 E35.48505
G1 X5.268 Y-42.296 E35.50803
G1 X5.643 Y-42.555 E35.53103
G1 X6.057 Y-42.745 E35.55402
G1 X6.498 Y-42.86 E35.57702
G1 X6.93 Y-42.896 E35.5989
G1 X24.93 Y-42.896 E36.50727
G1 X25.384 Y-42.856 E36.53027
G1 X25.824 Y-42.738 E36.55326
G1 X26.236 Y-42.544 E36.57624
G1 X26.609 Y-42.281 E36.59928
G1 X26.93 Y-41.958 E36.62226
G1 X27.189 Y-41.583 E36.64526
G1 X27.379 Y-41.169 E36.66824
G1 X27.494 Y-40.728 E36.69124
G1 X27.53 Y-40.296 E36.71312
G1 X27.53 Y-14.796 E37.99998
G1 X27.49 Y-14.342 E38.02298
G1 X27.372 Y-13.902 E38.04597
G1 X27.178 Y-13.49 E38.06896
G1 X26.915 Y-13.117 E38.09199
G1 X26.592 Y-12.796 E38.11497
G1 X26.217 Y-12.537 E38.13797
G1 X25.803 Y-12.347 E38.16096
G1 X25.362 Y-12.232 E38.18395
G1 X24.93 Y-12.196 E38.20583
G1 X6.93 Y-12.196 E39.11421
G1 X6.476 Y-12.236 E39.13721
G1 X6.036 Y-12.354 E39.1602
G0 F3600 X6.111 Y-12.754
G1 F900 X5.739 Y-12.947 E39.18135
G1 X5.41 Y-13.206 E39.20248
G1 X5.136 Y-13.523 E39.22362
G1 X4.927 Y-13.886 E39.24476
G1 X4.791 Y-14.283 E39.26594
G1 X4.73 Y-14.796 E39.29201
G1 X4.73 Y-40.296 E40.57887
G1 X4.77 Y-40.713 E40.60001
G1 X4.888 Y-41.115 E40.62116
G1 X5.081 Y-41.487 E40.64231
G1 X5.34 Y-41.816 E40.66344
G1 X5.657 Y-42.09 E40.68458
G1 X6.02 Y-42.299 E40.70572
G1 X6.417 Y-42.435 E40.7269
G1 X6.93 Y-42.496 E40.75297
G1 X24.93 Y-42.496 E41.66134
G1 X25.347 Y-42.456 E41.68249
G1 X25.749 Y-42.338 E41.70363
G1 X26.121 Y-42.145 E41.72478
G1 X26.45 Y-41.886 E41.74591
G1 X26.724 Y-41.569 E41.76705
G1 X26.933 Y-41.206 E41.78819
G1 X27.069 Y-40.809 E41.80937
G1 X27.13 Y-40.296 E41.83544
G1 X27.13 Y-14.796 E43.12231
G1 X27.09 Y-14.379 E43.14345
G1 X26.972 Y-13.977 E43.16459
G1 X26.779 Y-13.605 E43.18574
G1 X26.52 Y-13.276 E43.20687
G1 X26.203 Y-13.002 E43.22801
G1 X25.84 Y-12.793 E43.24915
G1 X25.443 Y-12.657 E43.27033
G1 X24.93 Y-12.596 E43.2964
G1 X6.93 Y-12.596 E44.20478
G1 X6.513 Y-12.636 E44.22592
G1 X6.111 Y-12.754 E44.24706
G0 F3600 X6.193 Y-13.154
G1 F900 X5.866 Y-13.344 E44.26615
G1 X5.585 Y-13.599 E44.2853
G1 X5.365 Y-13.908 E44.30444
G1 X5.213 Y-14.255 E44.32356
G1 X5.13 Y-14.796 E44.35118
G1 X5.13 Y-40.296 E45.63804
G1 X5.17 Y-40.673 E45.65717
G1 X5.288 Y-41.033 E45.67629
G1 X5.478 Y-41.36 E45.69538
G1 X5.733 Y-41.641 E45.71453
G1 X6.042 Y-41.861 E45.73367
G1 X6.389 Y-42.013 E45.75279
G1 X6.93 Y-42.096 E45.78041
G1 X24.93 Y-42.096 E46.68878
G1 X25.307 Y-42.056 E46.70792
G1 X25.667 Y-41.938 E46.72703
G1 X25.994 Y-41.748 E46.74612
G1 X26.275 Y-41.493 E46.76527
G1 X26.495 Y-41.184 E46.78441
G1 X26.647 Y-40.837 E46.80353
G1 X26.73 Y-40.296 E46.83115
G1 X26.73 Y-14.796 E48.11802
G1 X26.69 Y-14.419 E48.13715
G1 X26.572 Y-14.059 E48.15627
G1 X26.382 Y-13.732 E48.17535
G1 X26.127 Y-13.451 E48.1945
G1 X25.818 Y-13.231 E48.21364
G1 X25.471 Y-13.079 E48.23276
G1 X24.93 Y-12.996 E48.26038
G1 X6.93 Y-12.996 E49.16876
G1 X6.553 Y-13.036 E49.18789
G1 X6.193 Y-13.154 E49.20701
G0 F3600 X6.286 Y-13.553
G1 F900 X6.009 Y-13.741 E49.2239
G1 X5.786 Y-13.989 E49.24073
G1 X5.627 Y-14.283 E49.2576
G1 X5.543 Y-14.607 E49.27449
G1 X5.53 Y-14.796 E49.28405
G1 X5.53 Y-40.296 E50.57092
G1 X5.57 Y-40.628 E50.58779
G1 X5.687 Y-40.94 E50.60461
G1 X5.875 Y-41.217 E50.62151
G1 X6.123 Y-41.44 E50.63834
G1 X6.417 Y-41.599 E50.6552
G1 X6.741 Y-41.683 E50.6721
G1 X6.93 Y-41.696 E50.68166
G1 X24.93 Y-41.696 E51.59003
G1 X25.262 Y-41.656 E51.60691
G1 X25.574 Y-41.539 E51.62372
G1 X25.851 Y-41.351 E51.64062
G1 X26.074 Y-41.103 E51.65745
G1 X26.233 Y-40.809 E51.67432
G1 X26.317 Y-40.485 E51.69121
G1 X26.33 Y-40.296 E51.70077
G1 X26.33 Y-14.796 E52.98763
G1 X26.29 Y-14.464 E53.00451
G1 X26.173 Y-14.152 E53.02132
G1 X25.985 Y-13.875 E53.03822
G1 X25.737 Y-13.652 E53.05505
G1 X25.443 Y-13.493 E53.07192
G1 X25.119 Y-13.409 E53.08881
G1 X24.93 Y-13.396 E53.09837
G1 X6.93 Y-13.396 E54.00674
G1 X6.598 Y-13.436 E54.02362
G1 X6.286 Y-13.553 E54.04044
G0 F3600 X6.651 Y-13.836
G1 F900 X6.394 Y-13.952 E54.05467
G1 X6.179 Y-14.135 E54.06891
G1 X6.025 Y-14.371 E54.08313
G1 X5.942 Y-14.641 E54.09739
G1 X5.93 Y-14.796 E54.10523
G1 X5.93 Y-40.296 E55.3921
G1 X5.97 Y-40.575 E55.40632
G1 X6.086 Y-40.832 E55.42055
G1 X6.269 Y-41.047 E55.4348
G1 X6.505 Y-41.201 E55.44902
G1 X6.775 Y-41.284 E55.46328
G1 X6.93 Y-41.296 E55.47112
G1 X24.93 Y-41.296 E56.3795
G1 X25.209 Y-41.256 E56.39372
G1 X25.466 Y-41.14 E56.40795
G1 X25.681 Y-40.957 E56.4222
G1 X25.835 Y-40.721 E56.43642
G1 X25.918 Y-40.451 E56.45068
G1 X25.93 Y-40.296 E56.45852
G1 X25.93 Y-14.796 E57.74539
G1 X25.89 Y-14.517 E57.75961
G1 X25.774 Y-14.26 E57.77384
G1 X25.591 Y-14.045 E57.78809
G1 X25.355 Y-13.891 E57.80231
G1 X25.085 Y-13.808 E57.81656
G1 X24.93 Y-13.796 E57.82441
G1 X6.93 Y-13.796 E58.73279
G1 X6.651 Y-13.836 E58.74701
G0 F3600 X6.715 Y-14.236
G1 F900 X6.529 Y-14.349 E58.75799
G1 X6.396 Y-14.522 E58.769
G1 X6.33 Y-14.796 E58.78323
G1 X6.33 Y-40.296 E60.07009
G1 X6.37 Y-40.511 E60.08113
G1 X6.483 Y-40.697 E60.09211
G1 X6.656 Y-40.83 E60.10312
G1 X6.93 Y-40.896 E60.11735
G1 X24.93 Y-40.896 E61.02572
G1 X25.145 Y-40.856 E61.03676
G1 X25.331 Y-40.743 E61.04774
G1 X25.464 Y-40.57 E61.05875
G1 X25.53 Y-40.296 E61.07298
G1 X25.53 Y-14.796 E62.35984
G1 X25.49 Y-14.581 E62.37088
G1 X25.377 Y-14.395 E62.38186
G1 X25.204 Y-14.262 E62.39287
G1 X24.93 Y-14.196 E62.4071
G1 X6.93 Y-14.196 E63.31547
G1 X6.715 Y-14.236 E63.32651
G0 F3600 X6.811 Y-14.635
G1 F900 X6.73 Y-14.796 E63.3356
G1 X6.73 Y-40.296 E64.62247
G1 X6.769 Y-40.415 E64.62879
G1 X6.93 Y-40.496 E64.63788
G1 X24.93 Y-40.496 E65.54626
G1 X25.049 Y-40.457 E65.55258
G1 X25.13 Y-40.296 E65.56167
G1 X25.13 Y-14.796 E66.84854
G1 X25.091 Y-14.677 E66.85486
G1 X24.93 Y-14.596 E66.86395
G1 X6.93 Y-14.596 E67.77233
G1 X6.811 Y-14.635 E67.77865
G1 F30000 E63.67865
G0 F3600 X6.265 Y-14.635
G0 X1.06 Y-12.035
G1 F30000 E67.77865
G1 F900 X0.72 Y-11.503 E67.81051
G1 X0.314 Y-11.018 E67.84243
G1 X-.149 Y-10.588 E67.87432
G1 X-.663 Y-10.219 E67.90625
G1 X-1.219 Y-9.919 E67.93813
G1 X-1.808 Y-9.691 E67.97001
G1 X-2.422 Y-9.539 E68.00193
G1 X-3.313 Y-9.459 E68.04707
G1 X-21.313 Y-9.459 E68.95545
G1 X-21.944 Y-9.499 E68.98736
G1 X-22.565 Y-9.618 E69.01926
G1 X-23.165 Y-9.815 E69.05113
G1 X-23.737 Y-10.086 E69.08308
G1 X-24.269 Y-10.426 E69.11494
G1 X-24.754 Y-10.832 E69.14686
G1 X-25.184 Y-11.295 E69.17875
G1 X-25.553 Y-11.809 E69.21068
G1 X-25.853 Y-12.365 E69.24256
G1 X-26.081 Y-12.954 E69.27443
G1 X-26.233 Y-13.568 E69.30635
G1 X-26.313 Y-14.459 E69.3515
G1 X-26.313 Y-39.959 E70.63836
G1 X-26.273 Y-40.59 E70.67027
G1 X-26.154 Y-41.211 E70.70218
G1 X-25.957 Y-41.811 E70.73405
G1 X-25.686 Y-42.383 E70.76599
G1 X-25.346 Y-42.915 E70.79785
G1 X-24.94 Y-43.4 E70.82977
G1 X-24.477 Y-43.83 E70.86166
G1 X-23.963 Y-44.199 E70.89359
G1 X-23.407 Y-44.499 E70.92548
G1 X-22.818 Y-44.727 E70.95735
G1 X-22.204 Y-44.879 E70.98927
G1 X-21.313 Y-44.959 E71.03442
G1 X-3.313 Y-44.959 E71.94279
G1 X-2.682 Y-44.919 E71.9747
G1 X-2.061 Y-44.8 E72.00661
G1 X-1.461 Y-44.603 E72.03848
