;FLAVOR:Marlin
;TIME:22323
;Filament used: 10.2824m
;Layer height: 0.15
;Generated with Cura_SteamEngine 3.2.1
M104 S210
M109 S210
M82 ;absolute extrusion mode
G28 ;Home
G1 Z15.0 F6000 ;Move the platform down 15mm
;Prime the extruder
G92 E0
G1 F200 E3
G92 E0
;LAYER_COUNT:948
;LAYER:0
M107
G0 F3600 X-11.522 Y40.263 Z0.3
;TYPE:SKIRT
G1 F900 X-11.522 Y-42.737 E4.18862
G1 X-11.482 Y-43.368 E4.22053
G1 X-11.363 Y-43.989 E4.25244
G1 X-11.166 Y-44.589 E4.28431
G1 X-10.895 Y-45.161 E4.31625
G1 X-10.555 Y-45.693 E4.34811
G1 X-10.149 Y-46.178 E4.38003
G1 X-9.686 Y-46.608 E4.41192
G1 X-9.172 Y-46.977 E4.44385
G1 X-8.616 Y-47.277 E4.47573
G1 X-8.027 Y-47.505 E4.5076
G1 X-7.413 Y-47.657 E4.53953
G1 X-6.522 Y-47.737 E4.58467
G1 X13.478 Y-47.737 E5.59398
G1 X14.109 Y-47.697 E5.62588
G1 X14.73 Y-47.578 E5.65779
G1 X15.33 Y-47.381 E5.68966
G1 X15.902 Y-47.11 E5.72161
G1 X16.434 Y-46.77 E5.75347
G1 X16.919 Y-46.364 E5.78539
G1 X17.349 Y-45.901 E5.81728
G1 X17.718 Y-45.387 E5.84921
G1 X18.018 Y-44.831 E5.88109
G1 X18.246 Y-44.242 E5.91296
G1 X18.398 Y-43.628 E5.94488
G1 X18.478 Y-42.737 E5.99003
G1 X18.478 Y40.263 E10.17865
G1 X18.438 Y40.894 E10.21056
G1 X18.319 Y41.515 E10.24247
G1 X18.122 Y42.115 E10.27433
G1 X17.851 Y42.687 E10.30628
G1 X17.511 Y43.219 E10.33814
G1 X17.105 Y43.704 E10.37006
G1 X16.642 Y44.134 E10.40195
G1 X16.128 Y44.503 E10.43388
G1 X15.572 Y44.803 E10.46576
G1 X14.983 Y45.031 E10.49763
G1 X14.369 Y45.183 E10.52955
G1 X13.478 Y45.263 E10.5747
G1 X-6.522 Y45.263 E11.58401
G1 X-7.153 Y45.223 E11.61591
G1 X-7.774 Y45.104 E11.64782
G1 X-8.374 Y44.907 E11.67969
G1 X-8.946 Y44.636 E11.71163
G1 X-9.478 Y44.296 E11.7435
G1 X-9.963 Y43.89 E11.77542
G1 X-10.393 Y43.427 E11.8073
G1 X-10.762 Y42.913 E11.83924
G1 X-11.062 Y42.357 E11.87112
G1 X-11.29 Y41.768 E11.90299
G1 X-11.442 Y41.154 E11.93491
G1 X-11.522 Y40.263 E11.98006
G0 F3600 X-11.122 Y40.263
G1 F900 X-11.122 Y-42.737 E16.16868
G1 X-11.082 Y-43.342 E16.19928
G1 X-10.963 Y-43.936 E16.22985
G1 X-10.767 Y-44.51 E16.26046
G1 X-10.496 Y-45.053 E16.29108
G1 X-10.157 Y-45.556 E16.32169
G1 X-9.755 Y-46.009 E16.35226
G1 X-9.297 Y-46.406 E16.38285
G1 X-8.79 Y-46.739 E16.41346
G1 X-8.244 Y-47.003 E16.44406
G1 X-7.668 Y-47.192 E16.47466
G1 X-7.072 Y-47.304 E16.50526
G1 X-6.522 Y-47.337 E16.53307
G1 X13.478 Y-47.337 E17.54237
G1 X14.083 Y-47.297 E17.57297
G1 X14.677 Y-47.178 E17.60354
G1 X15.251 Y-46.982 E17.63415
G1 X15.794 Y-46.711 E17.66478
G1 X16.297 Y-46.372 E17.69539
G1 X16.75 Y-45.97 E17.72595
G1 X17.147 Y-45.512 E17.75654
G1 X17.48 Y-45.005 E17.78715
G1 X17.744 Y-44.459 E17.81776
G1 X17.933 Y-43.883 E17.84835
G1 X18.045 Y-43.287 E17.87895
G1 X18.078 Y-42.737 E17.90676
G1 X18.078 Y40.263 E22.09538
G1 X18.038 Y40.868 E22.12598
G1 X17.919 Y41.462 E22.15655
G1 X17.723 Y42.036 E22.18716
G1 X17.452 Y42.579 E22.21778
G1 X17.113 Y43.082 E22.2484
G1 X16.711 Y43.535 E22.27896
G1 X16.253 Y43.932 E22.30955
G1 X15.746 Y44.265 E22.34016
G1 X15.2 Y44.529 E22.37076
G1 X14.624 Y44.718 E22.40136
G1 X14.028 Y44.83 E22.43196
G1 X13.478 Y44.863 E22.45977
G1 X-6.522 Y44.863 E23.46907
G1 X-7.127 Y44.823 E23.49967
G1 X-7.721 Y44.704 E23.53024
G1 X-8.295 Y44.508 E23.56085
G1 X-8.838 Y44.237 E23.59148
G1 X-9.341 Y43.898 E23.62209
G1 X-9.794 Y43.496 E23.65265
G1 X-10.191 Y43.038 E23.68324
G1 X-10.524 Y42.531 E23.71385
G1 X-10.788 Y41.985 E23.74446
G1 X-10.977 Y41.409 E23.77505
G1 X-11.089 Y40.813 E23.80565
G1 X-11.122 Y40.263 E23.83346
G0 F3600 X-10.722 Y40.263
G1 F900 X-10.722 Y-42.737 E28.02208
G1 X-10.682 Y-43.315 E28.05132
G1 X-10.563 Y-43.882 E28.08056
G1 X-10.367 Y-44.427 E28.10978
G1 X-10.098 Y-44.94 E28.13902
G1 X-9.761 Y-45.411 E28.16824
G1 X-9.362 Y-45.831 E28.19748
G1 X-8.909 Y-46.193 E28.22674
G1 X-8.411 Y-46.488 E28.25595
G1 X-7.877 Y-46.713 E28.2852
G1 X-7.317 Y-46.861 E28.31443
G1 X-6.522 Y-46.937 E28.35473
G1 X13.478 Y-46.937 E29.36403
G1 X14.056 Y-46.897 E29.39327
G1 X14.623 Y-46.778 E29.42251
G1 X15.168 Y-46.582 E29.45174
G1 X15.681 Y-46.313 E29.48097
G1 X16.152 Y-45.976 E29.5102
G1 X16.572 Y-45.577 E29.53943
G1 X16.934 Y-45.124 E29.5687
G1 X17.229 Y-44.626 E29.59791
G1 X17.454 Y-44.092 E29.62715
G1 X17.602 Y-43.532 E29.65638
G1 X17.678 Y-42.737 E29.69668
G1 X17.678 Y40.263 E33.8853
G1 X17.638 Y40.841 E33.91454
G1 X17.519 Y41.408 E33.94378
G1 X17.323 Y41.953 E33.97301
G1 X17.054 Y42.466 E34.00224
G1 X16.717 Y42.937 E34.03147
G1 X16.318 Y43.357 E34.0607
G1 X15.865 Y43.719 E34.08996
G1 X15.367 Y44.014 E34.11917
G1 X14.833 Y44.239 E34.14842
G1 X14.273 Y44.387 E34.17765
G1 X13.478 Y44.463 E34.21795
G1 X-6.522 Y44.463 E35.22726
G1 X-7.1 Y44.423 E35.2565
G1 X-7.667 Y44.304 E35.28573
G1 X-8.212 Y44.108 E35.31496
G1 X-8.725 Y43.839 E35.34419
G1 X-9.196 Y43.502 E35.37342
G1 X-9.616 Y43.103 E35.40266
G1 X-9.978 Y42.65 E35.43192
G1 X-10.273 Y42.152 E35.46113
G1 X-10.498 Y41.618 E35.49037
G1 X-10.646 Y41.058 E35.5196
G1 X-10.722 Y40.263 E35.55991
G0 F3600 X-10.322 Y40.263
G1 F900 X-10.322 Y-42.737 E39.74853
G1 X-10.282 Y-43.287 E39.77635
G1 X-10.163 Y-43.825 E39.80416
G1 X-9.967 Y-44.34 E39.83197
G1 X-9.699 Y-44.821 E39.85976
G1 X-9.365 Y-45.259 E39.88755
G1 X-8.97 Y-45.643 E39.91535
G1 X-8.524 Y-45.967 E39.94317
G1 X-8.036 Y-46.222 E39.97096
G1 X-7.516 Y-46.405 E39.99878
G1 X-6.975 Y-46.51 E40.02659
G1 X-6.522 Y-46.537 E40.04949
G1 X13.478 Y-46.537 E41.0588
G1 X14.028 Y-46.497 E41.08663
G1 X14.566 Y-46.378 E41.11443
G1 X15.081 Y-46.182 E41.14224
G1 X15.562 Y-45.914 E41.17003
G1 X16 Y-45.58 E41.19783
G1 X16.384 Y-45.185 E41.22563
G1 X16.708 Y-44.739 E41.25345
G1 X16.963 Y-44.251 E41.28123
G1 X17.146 Y-43.731 E41.30905
G1 X17.251 Y-43.19 E41.33687
G1 X17.278 Y-42.737 E41.35977
G1 X17.278 Y40.263 E45.54839
G1 X17.238 Y40.813 E45.57622
G1 X17.119 Y41.351 E45.60402
G1 X16.923 Y41.866 E45.63183
G1 X16.655 Y42.347 E45.65962
G1 X16.321 Y42.785 E45.68742
G1 X15.926 Y43.169 E45.71522
G1 X15.48 Y43.493 E45.74304
G1 X14.992 Y43.748 E45.77082
G1 X14.472 Y43.931 E45.79864
G1 X13.931 Y44.036 E45.82645
G1 X13.478 Y44.063 E45.84935
G1 X-6.522 Y44.063 E46.85866
G1 X-7.072 Y44.023 E46.88649
G1 X-7.61 Y43.904 E46.9143
G1 X-8.125 Y43.708 E46.9421
G1 X-8.606 Y43.44 E46.96989
G1 X-9.044 Y43.106 E46.99769
G1 X-9.428 Y42.711 E47.02549
G1 X-9.752 Y42.265 E47.05331
G1 X-10.007 Y41.777 E47.0811
G1 X-10.19 Y41.257 E47.10892
G1 X-10.295 Y40.716 E47.13673
G1 X-10.322 Y40.263 E47.15963
G0 F3600 X-9.922 Y40.263
G1 F900 X-9.922 Y-42.737 E51.34825
G1 X-9.882 Y-43.257 E51.37457
G1 X-9.763 Y-43.764 E51.40085
G1 X-9.568 Y-44.247 E51.42714
G1 X-9.302 Y-44.695 E51.45343
G1 X-8.97 Y-45.097 E51.47974
G1 X-8.58 Y-45.443 E51.50605
G1 X-8.142 Y-45.726 E51.53237
G1 X-7.667 Y-45.939 E51.55864
G1 X-7.164 Y-46.076 E51.58495
G1 X-6.522 Y-46.137 E51.61749
G1 X13.478 Y-46.137 E52.6268
G1 X13.998 Y-46.097 E52.65312
G1 X14.505 Y-45.978 E52.6794
G1 X14.988 Y-45.783 E52.70568
G1 X15.436 Y-45.517 E52.73198
G1 X15.838 Y-45.185 E52.75829
G1 X16.184 Y-44.795 E52.7846
G1 X16.467 Y-44.357 E52.81092
G1 X16.68 Y-43.882 E52.83719
G1 X16.817 Y-43.379 E52.86349
G1 X16.878 Y-42.737 E52.89604
G1 X16.878 Y40.263 E57.08466
G1 X16.838 Y40.783 E57.11098
G1 X16.719 Y41.29 E57.13726
G1 X16.524 Y41.773 E57.16355
G1 X16.258 Y42.221 E57.18984
G1 X15.926 Y42.623 E57.21615
G1 X15.536 Y42.969 E57.24246
G1 X15.098 Y43.252 E57.26878
G1 X14.623 Y43.465 E57.29505
G1 X14.12 Y43.602 E57.32136
G1 X13.478 Y43.663 E57.3539
G1 X-6.522 Y43.663 E58.36321
G1 X-7.042 Y43.623 E58.38953
G1 X-7.549 Y43.504 E58.41581
G1 X-8.032 Y43.309 E58.44209
G1 X-8.48 Y43.043 E58.46839
G1 X-8.882 Y42.711 E58.4947
G1 X-9.228 Y42.321 E58.52101
G1 X-9.511 Y41.883 E58.54733
G1 X-9.724 Y41.408 E58.5736
G1 X-9.861 Y40.905 E58.59991
G1 X-9.922 Y40.263 E58.63245
G0 F3600 X-9.522 Y40.263
G1 F900 X-9.522 Y-42.737 E62.82107
G1 X-9.482 Y-43.225 E62.84578
G1 X-9.363 Y-43.7 E62.87049
G1 X-9.169 Y-44.149 E62.89518
G1 X-8.904 Y-44.561 E62.9199
G1 X-8.576 Y-44.924 E62.94459
G1 X-8.193 Y-45.229 E62.96929
G1 X-7.765 Y-45.467 E62.99401
G1 X-7.305 Y-45.633 E63.01869
G1 X-6.824 Y-45.722 E63.04337
G1 X-6.522 Y-45.737 E63.05863
G1 X13.478 Y-45.737 E64.06794
G1 X13.966 Y-45.697 E64.09265
G1 X14.441 Y-45.578 E64.11736
G1 X14.89 Y-45.384 E64.14204
G1 X15.302 Y-45.119 E64.16676
G1 X15.665 Y-44.791 E64.19145
G1 X15.97 Y-44.408 E64.21616
G1 X16.208 Y-43.98 E64.24088
G1 X16.374 Y-43.52 E64.26556
G1 X16.463 Y-43.039 E64.29024
G1 X16.478 Y-42.737 E64.3055
G1 X16.478 Y40.263 E68.49412
G1 X16.438 Y40.751 E68.51883
G1 X16.319 Y41.226 E68.54354
G1 X16.125 Y41.675 E68.56823
G1 X15.86 Y42.087 E68.59295
G1 X15.532 Y42.45 E68.61764
G1 X15.149 Y42.755 E68.64234
G1 X14.721 Y42.993 E68.66706
G1 X14.261 Y43.159 E68.69174
G1 X13.78 Y43.248 E68.71642
G1 X13.478 Y43.263 E68.73168
G1 X-6.522 Y43.263 E69.74099
G1 X-7.01 Y43.223 E69.7657
G1 X-7.485 Y43.104 E69.79041
G1 X-7.934 Y42.91 E69.81509
G1 X-8.346 Y42.645 E69.83982
G1 X-8.709 Y42.317 E69.86451
G1 X-9.014 Y41.934 E69.88921
G1 X-9.252 Y41.506 E69.91393
G1 X-9.418 Y41.046 E69.93861
G1 X-9.507 Y40.565 E69.96329
G1 X-9.522 Y40.263 E69.97855
G0 F3600 X-9.122 Y40.263
G1 F900 X-9.122 Y-42.737 E74.16717
G1 X-9.082 Y-43.191 E74.19017
G1 X-8.964 Y-43.631 E74.21316
G1 X-8.77 Y-44.043 E74.23614
G1 X-8.507 Y-44.416 E74.25917
G1 X-8.184 Y-44.737 E74.28216
G1 X-7.809 Y-44.996 E74.30515
G1 X-7.395 Y-45.186 E74.32814
G1 X-6.954 Y-45.301 E74.35114
G1 X-6.522 Y-45.337 E74.37302
G1 X13.478 Y-45.337 E75.38232
G1 X13.932 Y-45.297 E75.40532
G1 X14.372 Y-45.179 E75.42831
G1 X14.784 Y-44.985 E75.4513
G1 X15.157 Y-44.722 E75.47433
G1 X15.478 Y-44.399 E75.49731
G1 X15.737 Y-44.024 E75.52031
G1 X15.927 Y-43.61 E75.5433
G1 X16.042 Y-43.169 E75.5663
G1 X16.078 Y-42.737 E75.58817
G1 X16.078 Y40.263 E79.77679
G1 X16.038 Y40.717 E79.79979
G1 X15.92 Y41.157 E79.82278
G1 X15.726 Y41.569 E79.84576
G1 X15.463 Y41.942 E79.86879
G1 X15.14 Y42.263 E79.89178
G1 X14.765 Y42.522 E79.91478
G1 X14.351 Y42.712 E79.93776
G1 X13.91 Y42.827 E79.96076
G1 X13.478 Y42.863 E79.98264
G1 X-6.522 Y42.863 E80.99194
G1 X-6.976 Y42.823 E81.01494
G1 X-7.416 Y42.705 E81.03793
G1 X-7.828 Y42.511 E81.06092
G1 X-8.201 Y42.248 E81.08395
G1 X-8.522 Y41.925 E81.10693
G1 X-8.781 Y41.55 E81.12993
G1 X-8.971 Y41.136 E81.15292
G1 X-9.086 Y40.695 E81.17592
G1 X-9.122 Y40.263 E81.19779
G0 F3600 X-8.722 Y40.263
G1 F900 X-8.722 Y-42.737 E85.38641
G1 X-8.682 Y-43.154 E85.40755
G1 X-8.564 Y-43.556 E85.4287
G1 X-8.371 Y-43.928 E85.44984
G1 X-8.112 Y-44.257 E85.47098
G1 X-7.795 Y-44.531 E85.49212
G1 X-7.432 Y-44.74 E85.51326
G1 X-7.035 Y-44.876 E85.53444
G1 X-6.522 Y-44.937 E85.56051
G1 X13.478 Y-44.937 E86.56981
G1 X13.895 Y-44.897 E86.59095
G1 X14.297 Y-44.779 E86.6121
G1 X14.669 Y-44.586 E86.63325
G1 X14.998 Y-44.327 E86.65438
G1 X15.272 Y-44.01 E86.67552
G1 X15.481 Y-43.647 E86.69666
G1 X15.617 Y-43.25 E86.71784
G1 X15.678 Y-42.737 E86.74391
G1 X15.678 Y40.263 E90.93253
G1 X15.638 Y40.68 E90.95367
G1 X15.52 Y41.082 E90.97481
G1 X15.327 Y41.454 E90.99596
G1 X15.068 Y41.783 E91.01709
G1 X14.751 Y42.057 E91.03824
G1 X14.388 Y42.266 E91.05938
G1 X13.991 Y42.402 E91.08055
G1 X13.478 Y42.463 E91.10663
G1 X-6.522 Y42.463 E92.11593
G1 X-6.939 Y42.423 E92.13707
G1 X-7.341 Y42.305 E92.15821
G1 X-7.713 Y42.112 E92.17936
G1 X-8.042 Y41.853 E92.20049
G1 X-8.316 Y41.536 E92.22164
G1 X-8.525 Y41.173 E92.24278
G1 X-8.661 Y40.776 E92.26396
G1 X-8.722 Y40.263 E92.29003
G0 F3600 X-8.322 Y40.263
G1 F900 X-8.322 Y-42.737 E96.47865
G1 X-8.282 Y-43.114 E96.49778
G1 X-8.164 Y-43.474 E96.5169
G1 X-7.974 Y-43.801 E96.53598
G1 X-7.719 Y-44.082 E96.55513
G1 X-7.41 Y-44.302 E96.57427
G1 X-7.063 Y-44.454 E96.59339
G1 X-6.522 Y-44.537 E96.62101
G1 X13.478 Y-44.537 E97.63032
G1 X13.855 Y-44.497 E97.64945
G1 X14.215 Y-44.379 E97.66857
G1 X14.542 Y-44.189 E97.68766
G1 X14.823 Y-43.934 E97.70681
G1 X15.043 Y-43.625 E97.72595
G1 X15.195 Y-43.278 E97.74507
G1 X15.278 Y-42.737 E97.77269
G1 X15.278 Y40.263 E101.96131
G1 X15.238 Y40.64 E101.98044
G1 X15.12 Y41 E101.99956
G1 X14.93 Y41.327 E102.01864
G1 X14.675 Y41.608 E102.03779
G1 X14.366 Y41.828 E102.05693
G1 X14.019 Y41.98 E102.07605
G1 X13.478 Y42.063 E102.10367
G1 X-6.522 Y42.063 E103.11298
G1 X-6.899 Y42.023 E103.13211
G1 X-7.259 Y41.905 E103.15123
G1 X-7.586 Y41.715 E103.17032
G1 X-7.867 Y41.46 E103.18947
G1 X-8.087 Y41.151 E103.20861
G1 X-8.239 Y40.804 E103.22773
G1 X-8.322 Y40.263 E103.25535
G0 F3600 X-7.922 Y40.263
G1 F900 X-7.922 Y-42.737 E107.44397
G1 X-7.882 Y-43.069 E107.46084
G1 X-7.765 Y-43.381 E107.47766
G1 X-7.577 Y-43.658 E107.49455
G1 X-7.329 Y-43.881 E107.51138
G1 X-7.035 Y-44.04 E107.52825
G1 X-6.711 Y-44.124 E107.54514
G1 X-6.522 Y-44.137 E107.5547
G1 X13.478 Y-44.137 E108.56401
G1 X13.81 Y-44.097 E108.58088
G1 X14.122 Y-43.98 E108.5977
G1 X14.399 Y-43.792 E108.61459
G1 X14.622 Y-43.544 E108.63143
G1 X14.781 Y-43.25 E108.64829
G1 X14.865 Y-42.926 E108.66518
G1 X14.878 Y-42.737 E108.67475
G1 X14.878 Y40.263 E112.86337
G1 X14.838 Y40.595 E112.88024
G1 X14.721 Y40.907 E112.89706
G1 X14.533 Y41.184 E112.91395
G1 X14.285 Y41.407 E112.93078
G1 X13.991 Y41.566 E112.94765
G1 X13.667 Y41.65 E112.96454
G1 X13.478 Y41.663 E112.9741
G1 X-6.522 Y41.663 E113.98341
G1 X-6.854 Y41.623 E114.00028
G1 X-7.166 Y41.506 E114.0171
G1 X-7.443 Y41.318 E114.03399
G1 X-7.666 Y41.07 E114.05082
G1 X-7.825 Y40.776 E114.06769
G1 X-7.909 Y40.452 E114.08458
G1 X-7.922 Y40.263 E114.09414
G0 F3600 X-7.522 Y40.263
G1 F900 X-7.522 Y-42.737 E118.28276
G1 X-7.482 Y-43.016 E118.29699
G1 X-7.366 Y-43.273 E118.31122
G1 X-7.183 Y-43.488 E118.32547
G1 X-6.947 Y-43.642 E118.33969
G1 X-6.677 Y-43.725 E118.35394
G1 X-6.522 Y-43.737 E118.36179
G1 X13.478 Y-43.737 E119.37109
G1 X13.757 Y-43.697 E119.38532
G1 X14.014 Y-43.581 E119.39955
G1 X14.229 Y-43.398 E119.41379
G1 X14.383 Y-43.162 E119.42802
G1 X14.466 Y-42.892 E119.44227
G1 X14.478 Y-42.737 E119.45012
G1 X14.478 Y40.263 E123.63874
G1 X14.438 Y40.542 E123.65296
G1 X14.322 Y40.799 E123.66719
G1 X14.139 Y41.014 E123.68144
G1 X13.903 Y41.168 E123.69566
G1 X13.633 Y41.251 E123.70991
G1 X13.478 Y41.263 E123.71776
G1 X-6.522 Y41.263 E124.72707
G1 X-6.801 Y41.223 E124.74129
G1 X-7.058 Y41.107 E124.75552
G1 X-7.273 Y40.924 E124.76977
G1 X-7.427 Y40.688 E124.78399
G1 X-7.51 Y40.418 E124.79824
G1 X-7.522 Y40.263 E124.80609
G0 F3600 X-7.122 Y40.263
G1 F900 X-7.122 Y-42.737 E128.99471
G1 X-7.082 Y-42.952 E129.00574
G1 X-6.969 Y-43.138 E129.01673
G1 X-6.796 Y-43.271 E129.02774
G1 X-6.522 Y-43.337 E129.04196
G1 X13.478 Y-43.337 E130.05127
G1 X13.693 Y-43.297 E130.06231
G1 X13.879 Y-43.184 E130.07329
G1 X14.012 Y-43.011 E130.0843
G1 X14.078 Y-42.737 E130.09852
G1 X14.078 Y40.263 E134.28714
G1 X14.038 Y40.478 E134.29818
G1 X13.925 Y40.664 E134.30916
G1 X13.752 Y40.797 E134.32017
G1 X13.478 Y40.863 E134.3344
G1 X-6.522 Y40.863 E135.3437
G1 X-6.737 Y40.823 E135.35474
G1 X-6.923 Y40.71 E135.36572
G1 X-7.056 Y40.537 E135.37674
G1 X-7.122 Y40.263 E135.39096
G0 F3600 X-6.722 Y40.263
G1 F900 X-6.722 Y-42.737 E139.57958
G1 X-6.683 Y-42.856 E139.5859
G1 X-6.522 Y-42.937 E139.59499
G1 X13.478 Y-42.937 E140.6043
G1 X13.597 Y-42.898 E140.61062
G1 X13.678 Y-42.737 E140.61971
G1 X13.678 Y40.263 E144.80833
G1 X13.639 Y40.382 E144.81465
G1 X13.478 Y40.463 E144.82375
G1 X-6.522 Y40.463 E145.83306
G1 X-6.641 Y40.424 E145.83937
G1 X-6.722 Y40.263 E145.84847
G1 F30000 E141.74847
G0 F3600 X-5.908 Y39.649
G0 X12.808 Y39.593
G0 X13.278 Y40.063
;TYPE:WALL-OUTER
G1 F30000 E145.84847
G1 F900 X-6.322 Y40.063 E146.83759
G1 X-6.322 Y-42.537 E151.00602
G1 X13.278 Y-42.537 E151.99514
G1 X13.278 Y40.063 E156.16358
G0 F3600 X13.078 Y40.063
G0 X12.878 Y39.663
;TYPE:WALL-INNER
G1 F900 X-5.922 Y39.663 E157.11233
G1 X-5.922 Y-42.137 E161.24039
G1 X12.878 Y-42.137 E162.18913
G1 X12.878 Y39.663 E166.3172
G0 F3600 X12.488 Y39.273
;TYPE:SKIN
G1 F900 X-5.532 Y39.273 E167.22658
G1 X-5.532 Y-41.747 E171.31528
G1 X12.488 Y-41.747 E172.22466
G1 X12.488 Y39.273 E176.31336
G0 F3600 X-5.031 Y39.091
G1 F900 X-5.352 Y38.771 E176.33624
G0 F3600 X-5.352 Y38.205
G1 F900 X-4.466 Y39.091 E176.39947
G1 X-4.396 Y39.161
G0 F3600 X-3.9 Y39.091
G1 F900 X-5.352 Y37.64 E176.50306
G1 X-5.422 Y37.57
G0 F3600 X-5.352 Y37.074
G1 F900 X-3.334 Y39.091 E176.64705
G1 X-3.264 Y39.161
