;FLAVOR:Marlin
;TIME:6823
;Filament used: 3.34202m
;Layer height: 0.15
;Generated with Cura_SteamEngine 3.2.1
M104 S210
M109 S210
M82 ;absolute extrusion mode
G28 ;Home
G1 Z15.0 F6000 ;Move the platform down 15mm
;Prime the extruder
G92 E0
G1 F200 E3
G92 E0
;LAYER_COUNT:169
;LAYER:0
M107
G0 F3600 X-11.64 Y-4.883 Z0.3
;TYPE:SKIRT
G1 F900 X-12.271 Y-4.923 E0.03191
G1 X-12.892 Y-5.042 E0.06382
G1 X-13.492 Y-5.239 E0.09569
G1 X-14.064 Y-5.51 E0.12763
G1 X-14.596 Y-5.85 E0.15949
G1 X-15.081 Y-6.256 E0.19141
G1 X-15.511 Y-6.719 E0.2233
G1 X-15.88 Y-7.233 E0.25523
G1 X-16.18 Y-7.789 E0.28711
G1 X-16.408 Y-8.378 E0.31898
G1 X-16.56 Y-8.992 E0.35091
G1 X-16.64 Y-9.883 E0.39605
G1 X-16.64 Y-35.283 E1.67787
G1 X-16.6 Y-35.914 E1.70978
G1 X-16.481 Y-36.535 E1.74169
G1 X-16.284 Y-37.135 E1.77356
G1 X-16.013 Y-37.707 E1.8055
G1 X-15.673 Y-38.239 E1.83736
G1 X-15.267 Y-38.724 E1.86928
G1 X-14.804 Y-39.154 E1.90117
G1 X-14.29 Y-39.523 E1.9331
G1 X-13.734 Y-39.823 E1.96498
G1 X-13.145 Y-40.051 E1.99685
G1 X-12.531 Y-40.203 E2.02878
G1 X-11.64 Y-40.283 E2.07392
G1 X6.837 Y-40.283 E3.00637
G1 X7.468 Y-40.243 E3.03828
G1 X8.089 Y-40.124 E3.07019
G1 X8.689 Y-39.927 E3.10205
G1 X9.261 Y-39.656 E3.134
G1 X9.793 Y-39.316 E3.16586
G1 X10.278 Y-38.91 E3.19778
G1 X10.708 Y-38.447 E3.22967
G1 X11.077 Y-37.933 E3.2616
G1 X11.377 Y-37.377 E3.29348
G1 X11.605 Y-36.788 E3.32535
G1 X11.757 Y-36.174 E3.35727
G1 X11.837 Y-35.283 E3.40242
G1 X11.837 Y-30.283 E3.65475
G1 X11.797 Y-29.652 E3.68665
G1 X11.678 Y-29.031 E3.71856
G1 X11.481 Y-28.431 E3.75043
G1 X11.21 Y-27.859 E3.78237
G1 X10.87 Y-27.327 E3.81424
G1 X10.464 Y-26.842 E3.84616
G1 X10.001 Y-26.412 E3.87804
G1 X9.487 Y-26.043 E3.90998
G1 X8.931 Y-25.743 E3.94186
G1 X8.342 Y-25.515 E3.97373
G1 X7.728 Y-25.363 E4.00565
G1 X6.837 Y-25.283 E4.0508
G1 X3.36 Y-25.283 E4.22627
G1 X3.36 Y-22.283 E4.37766
G1 X13.76 Y-22.283 E4.9025
G1 X14.391 Y-22.243 E4.93441
G1 X15.012 Y-22.124 E4.96632
G1 X15.612 Y-21.927 E4.99819
G1 X16.184 Y-21.656 E5.03013
G1 X16.716 Y-21.316 E5.06199
G1 X17.201 Y-20.91 E5.09391
G1 X17.631 Y-20.447 E5.1258
G1 X18 Y-19.933 E5.15773
G1 X18.3 Y-19.377 E5.18961
G1 X18.528 Y-18.788 E5.22149
G1 X18.68 Y-18.174 E5.25341
G1 X18.76 Y-17.283 E5.29855
G1 X18.76 Y-9.883 E5.672
G1 X18.72 Y-9.252 E5.7039
G1 X18.601 Y-8.631 E5.73581
G1 X18.404 Y-8.031 E5.76768
G1 X18.133 Y-7.459 E5.79962
G1 X17.793 Y-6.927 E5.83149
G1 X17.387 Y-6.442 E5.86341
G1 X16.924 Y-6.012 E5.89529
G1 X16.41 Y-5.643 E5.92722
G1 X15.854 Y-5.343 E5.95911
G1 X15.265 Y-5.115 E5.99098
G1 X14.651 Y-4.963 E6.0229
G1 X13.76 Y-4.883 E6.06805
G1 X-11.64 Y-4.883 E7.34987
G0 F3600 X-11.64 Y-5.283
G1 F900 X-12.245 Y-5.323 E7.38046
G1 X-12.839 Y-5.442 E7.41104
G1 X-13.413 Y-5.638 E7.44165
G1 X-13.956 Y-5.909 E7.47227
G1 X-14.459 Y-6.248 E7.50288
G1 X-14.912 Y-6.65 E7.53345
G1 X-15.309 Y-7.108 E7.56403
G1 X-15.642 Y-7.615 E7.59464
G1 X-15.906 Y-8.161 E7.62525
G1 X-16.095 Y-8.737 E7.65584
G1 X-16.207 Y-9.333 E7.68645
G1 X-16.24 Y-9.883 E7.71425
G1 X-16.24 Y-35.283 E8.99607
G1 X-16.2 Y-35.888 E9.02667
G1 X-16.081 Y-36.482 E9.05724
G1 X-15.885 Y-37.056 E9.08785
G1 X-15.614 Y-37.599 E9.11848
G1 X-15.275 Y-38.102 E9.14909
G1 X-14.873 Y-38.555 E9.17965
G1 X-14.415 Y-38.952 E9.21024
G1 X-13.908 Y-39.285 E9.24085
G1 X-13.362 Y-39.549 E9.27146
G1 X-12.786 Y-39.738 E9.30205
G1 X-12.19 Y-39.85 E9.33265
G1 X-11.64 Y-39.883 E9.36046
G1 X6.837 Y-39.883 E10.29291
G1 X7.442 Y-39.843 E10.32351
G1 X8.036 Y-39.724 E10.35408
G1 X8.61 Y-39.528 E10.38469
G1 X9.153 Y-39.257 E10.41531
G1 X9.656 Y-38.918 E10.44592
G1 X10.109 Y-38.516 E10.47649
G1 X10.506 Y-38.058 E10.50708
G1 X10.839 Y-37.551 E10.53769
G1 X11.103 Y-37.005 E10.56829
G1 X11.292 Y-36.429 E10.59889
G1 X11.404 Y-35.833 E10.62949
G1 X11.437 Y-35.283 E10.65729
G1 X11.437 Y-30.283 E10.90962
G1 X11.397 Y-29.678 E10.94022
G1 X11.278 Y-29.084 E10.97079
G1 X11.082 Y-28.51 E11.0014
G1 X10.811 Y-27.967 E11.03203
G1 X10.472 Y-27.464 E11.06264
G1 X10.07 Y-27.011 E11.0932
G1 X9.612 Y-26.614 E11.12379
G1 X9.105 Y-26.281 E11.1544
G1 X8.559 Y-26.017 E11.18501
G1 X7.983 Y-25.828 E11.2156
G1 X7.387 Y-25.716 E11.2462
G1 X6.837 Y-25.683 E11.27401
G1 X2.96 Y-25.683 E11.46966
G1 X2.96 Y-21.883 E11.66143
G1 X13.76 Y-21.883 E12.20646
G1 X14.365 Y-21.843 E12.23705
G1 X14.959 Y-21.724 E12.26763
G1 X15.533 Y-21.528 E12.29824
G1 X16.076 Y-21.257 E12.32886
G1 X16.579 Y-20.918 E12.35947
G1 X17.032 Y-20.516 E12.39004
G1 X17.429 Y-20.058 E12.42062
G1 X17.762 Y-19.551 E12.45124
G1 X18.026 Y-19.005 E12.48184
G1 X18.215 Y-18.429 E12.51243
G1 X18.327 Y-17.833 E12.54304
G1 X18.36 Y-17.283 E12.57084
G1 X18.36 Y-9.883 E12.94429
G1 X18.32 Y-9.278 E12.97489
G1 X18.201 Y-8.684 E13.00546
G1 X18.005 Y-8.11 E13.03607
G1 X17.734 Y-7.567 E13.06669
G1 X17.395 Y-7.064 E13.0973
G1 X16.993 Y-6.611 E13.12787
G1 X16.535 Y-6.214 E13.15846
G1 X16.028 Y-5.881 E13.18907
G1 X15.482 Y-5.617 E13.21967
G1 X14.906 Y-5.428 E13.25027
G1 X14.31 Y-5.316 E13.28087
G1 X13.76 Y-5.283 E13.30868
G1 X-11.64 Y-5.283 E14.59049
G0 F3600 X-11.64 Y-5.683
G1 F900 X-12.218 Y-5.723 E14.61973
G1 X-12.785 Y-5.842 E14.64897
G1 X-13.33 Y-6.038 E14.6782
G1 X-13.843 Y-6.307 E14.70743
G1 X-14.314 Y-6.644 E14.73666
G1 X-14.734 Y-7.043 E14.76589
G1 X-15.096 Y-7.496 E14.79516
G1 X-15.391 Y-7.994 E14.82437
G1 X-15.616 Y-8.528 E14.85361
G1 X-15.764 Y-9.088 E14.88284
G1 X-15.84 Y-9.883 E14.92314
G1 X-15.84 Y-35.283 E16.20496
G1 X-15.8 Y-35.861 E16.2342
G1 X-15.681 Y-36.428 E16.26344
G1 X-15.485 Y-36.973 E16.29266
G1 X-15.216 Y-37.486 E16.3219
G1 X-14.879 Y-37.957 E16.35112
G1 X-14.48 Y-38.377 E16.38036
G1 X-14.027 Y-38.739 E16.40962
G1 X-13.529 Y-39.034 E16.43883
G1 X-12.995 Y-39.259 E16.46808
G1 X-12.435 Y-39.407 E16.49731
G1 X-11.64 Y-39.483 E16.53761
G1 X6.837 Y-39.483 E17.47006
G1 X7.415 Y-39.443 E17.4993
G1 X7.982 Y-39.324 E17.52853
G1 X8.527 Y-39.128 E17.55776
G1 X9.04 Y-38.859 E17.58699
G1 X9.511 Y-38.522 E17.61622
G1 X9.931 Y-38.123 E17.64545
G1 X10.293 Y-37.67 E17.67472
G1 X10.588 Y-37.172 E17.70393
G1 X10.813 Y-36.638 E17.73317
G1 X10.961 Y-36.078 E17.7624
G1 X11.037 Y-35.283 E17.8027
G1 X11.037 Y-30.283 E18.05503
G1 X10.997 Y-29.705 E18.08427
G1 X10.878 Y-29.138 E18.11351
G1 X10.682 Y-28.593 E18.14274
G1 X10.413 Y-28.08 E18.17197
G1 X10.076 Y-27.609 E18.20119
G1 X9.677 Y-27.189 E18.23043
G1 X9.224 Y-26.827 E18.25969
G1 X8.726 Y-26.532 E18.2889
G1 X8.192 Y-26.307 E18.31815
G1 X7.632 Y-26.159 E18.34738
G1 X6.837 Y-26.083 E18.38768
G1 X2.56 Y-26.083 E18.60352
G1 X2.56 Y-21.483 E18.83566
G1 X13.76 Y-21.483 E19.40087
G1 X14.338 Y-21.443 E19.43011
G1 X14.905 Y-21.324 E19.45935
G1 X15.45 Y-21.128 E19.48858
G1 X15.963 Y-20.859 E19.51781
G1 X16.434 Y-20.522 E19.54703
G1 X16.854 Y-20.123 E19.57627
G1 X17.216 Y-19.67 E19.60553
G1 X17.511 Y-19.172 E19.63474
G1 X17.736 Y-18.638 E19.66399
G1 X17.884 Y-18.078 E19.69322
G1 X17.96 Y-17.283 E19.73352
G1 X17.96 Y-9.883 E20.10696
G1 X17.92 Y-9.305 E20.1362
G1 X17.801 Y-8.738 E20.16544
G1 X17.605 Y-8.193 E20.19467
G1 X17.336 Y-7.68 E20.2239
G1 X16.999 Y-7.209 E20.25313
G1 X16.6 Y-6.789 E20.28236
G1 X16.147 Y-6.427 E20.31162
G1 X15.649 Y-6.132 E20.34083
G1 X15.115 Y-5.907 E20.37008
G1 X14.555 Y-5.759 E20.39931
G1 X13.76 Y-5.683 E20.43961
G1 X-11.64 Y-5.683 E21.72143
G0 F3600 X-11.64 Y-6.083
G1 F900 X-12.19 Y-6.123 E21.74926
G1 X-12.728 Y-6.242 E21.77707
G1 X-13.243 Y-6.438 E21.80487
G1 X-13.724 Y-6.706 E21.83266
G1 X-14.162 Y-7.04 E21.86046
G1 X-14.546 Y-7.435 E21.88826
G1 X-14.87 Y-7.881 E21.91608
G1 X-15.125 Y-8.369 E21.94387
G1 X-15.308 Y-8.889 E21.97168
G1 X-15.413 Y-9.43 E21.9995
G1 X-15.44 Y-9.883 E22.0224
G1 X-15.44 Y-35.283 E23.30422
G1 X-15.4 Y-35.833 E23.33204
G1 X-15.281 Y-36.371 E23.35985
G1 X-15.085 Y-36.886 E23.38766
G1 X-14.817 Y-37.367 E23.41545
G1 X-14.483 Y-37.805 E23.44324
G1 X-14.088 Y-38.189 E23.47105
G1 X-13.642 Y-38.513 E23.49886
G1 X-13.154 Y-38.768 E23.52665
G1 X-12.634 Y-38.951 E23.55447
G1 X-12.093 Y-39.056 E23.58228
G1 X-11.64 Y-39.083 E23.60518
G1 X6.837 Y-39.083 E24.53763
G1 X7.387 Y-39.043 E24.56546
G1 X7.925 Y-38.924 E24.59327
G1 X8.44 Y-38.728 E24.62107
G1 X8.921 Y-38.46 E24.64886
G1 X9.359 Y-38.126 E24.67666
G1 X9.743 Y-37.731 E24.70446
G1 X10.067 Y-37.285 E24.73228
G1 X10.322 Y-36.797 E24.76007
G1 X10.505 Y-36.277 E24.78789
G1 X10.61 Y-35.736 E24.8157
G1 X10.637 Y-35.283 E24.8386
G1 X10.637 Y-30.283 E25.09093
G1 X10.597 Y-29.733 E25.11875
G1 X10.478 Y-29.195 E25.14656
G1 X10.282 Y-28.68 E25.17437
G1 X10.014 Y-28.199 E25.20216
G1 X9.68 Y-27.761 E25.22995
G1 X9.285 Y-27.377 E25.25775
G1 X8.839 Y-27.053 E25.28557
G1 X8.351 Y-26.798 E25.31336
G1 X7.831 Y-26.615 E25.34118
G1 X7.29 Y-26.51 E25.36899
G1 X6.837 Y-26.483 E25.39189
G1 X2.16 Y-26.483 E25.62792
G1 X2.16 Y-21.083 E25.90043
G1 X13.76 Y-21.083 E26.48583
G1 X14.31 Y-21.043 E26.51366
G1 X14.848 Y-20.924 E26.54147
G1 X15.363 Y-20.728 E26.56927
G1 X15.844 Y-20.46 E26.59706
G1 X16.282 Y-20.126 E26.62486
G1 X16.666 Y-19.731 E26.65266
G1 X16.99 Y-19.285 E26.68048
G1 X17.245 Y-18.797 E26.70827
G1 X17.428 Y-18.277 E26.73608
G1 X17.533 Y-17.736 E26.7639
G1 X17.56 Y-17.283 E26.7868
G1 X17.56 Y-9.883 E27.16024
G1 X17.52 Y-9.333 E27.18807
G1 X17.401 Y-8.795 E27.21588
G1 X17.205 Y-8.28 E27.24368
G1 X16.937 Y-7.799 E27.27147
G1 X16.603 Y-7.361 E27.29927
G1 X16.208 Y-6.977 E27.32707
G1 X15.762 Y-6.653 E27.35489
G1 X15.274 Y-6.398 E27.38268
G1 X14.754 Y-6.215 E27.4105
G1 X14.213 Y-6.11 E27.43831
G1 X13.76 Y-6.083 E27.46121
G1 X-11.64 Y-6.083 E28.74303
G0 F3600 X-11.64 Y-6.483
G1 F900 X-12.16 Y-6.523 E28.76935
G1 X-12.667 Y-6.642 E28.79563
G1 X-13.15 Y-6.837 E28.82191
G1 X-13.598 Y-7.103 E28.84821
G1 X-14 Y-7.435 E28.87452
G1 X-14.346 Y-7.825 E28.90083
G1 X-14.629 Y-8.263 E28.92715
G1 X-14.842 Y-8.738 E28.95342
G1 X-14.979 Y-9.241 E28.97972
G1 X-15.04 Y-9.883 E29.01227
G1 X-15.04 Y-35.283 E30.29409
G1 X-15 Y-35.803 E30.32041
G1 X-14.881 Y-36.31 E30.34669
G1 X-14.686 Y-36.793 E30.37297
G1 X-14.42 Y-37.241 E30.39927
G1 X-14.088 Y-37.643 E30.42558
G1 X-13.698 Y-37.989 E30.45189
G1 X-13.26 Y-38.272 E30.47821
G1 X-12.785 Y-38.485 E30.50448
G1 X-12.282 Y-38.622 E30.53079
G1 X-11.64 Y-38.683 E30.56333
G1 X6.837 Y-38.683 E31.49578
G1 X7.357 Y-38.643 E31.5221
G1 X7.864 Y-38.524 E31.54838
G1 X8.347 Y-38.329 E31.57466
G1 X8.795 Y-38.063 E31.60096
G1 X9.197 Y-37.731 E31.62727
G1 X9.543 Y-37.341 E31.65358
G1 X9.826 Y-36.903 E31.6799
G1 X10.039 Y-36.428 E31.70617
G1 X10.176 Y-35.925 E31.73248
G1 X10.237 Y-35.283 E31.76502
G1 X10.237 Y-30.283 E32.01735
G1 X10.197 Y-29.763 E32.04367
G1 X10.078 Y-29.256 E32.06995
G1 X9.883 Y-28.773 E32.09623
G1 X9.617 Y-28.325 E32.12253
G1 X9.285 Y-27.923 E32.14884
G1 X8.895 Y-27.577 E32.17515
G1 X8.457 Y-27.294 E32.20146
G1 X7.982 Y-27.081 E32.22774
G1 X7.479 Y-26.944 E32.25404
G1 X6.837 Y-26.883 E32.28659
G1 X1.76 Y-26.883 E32.5428
G1 X1.76 Y-20.683 E32.85569
G1 X13.76 Y-20.683 E33.46127
G1 X14.28 Y-20.643 E33.48759
G1 X14.787 Y-20.524 E33.51387
G1 X15.27 Y-20.329 E33.54016
G1 X15.718 Y-20.063 E33.56645
G1 X16.12 Y-19.731 E33.59276
G1 X16.466 Y-19.341 E33.61907
G1 X16.749 Y-18.903 E33.64539
G1 X16.962 Y-18.428 E33.67166
G1 X17.099 Y-17.925 E33.69797
G1 X17.16 Y-17.283 E33.73051
G1 X17.16 Y-9.883 E34.10396
G1 X17.12 Y-9.363 E34.13028
G1 X17.001 Y-8.856 E34.15656
G1 X16.806 Y-8.373 E34.18284
G1 X16.54 Y-7.925 E34.20914
G1 X16.208 Y-7.523 E34.23545
G1 X15.818 Y-7.177 E34.26176
G1 X15.38 Y-6.894 E34.28807
G1 X14.905 Y-6.681 E34.31434
G1 X14.402 Y-6.544 E34.34065
G1 X13.76 Y-6.483 E34.3732
G1 X-11.64 Y-6.483 E35.65502
G0 F3600 X-11.64 Y-6.883
G1 F900 X-12.128 Y-6.923 E35.67973
G1 X-12.603 Y-7.042 E35.70444
G1 X-13.052 Y-7.236 E35.72912
G1 X-13.464 Y-7.501 E35.75384
G1 X-13.827 Y-7.829 E35.77853
G1 X-14.132 Y-8.212 E35.80324
G1 X-14.37 Y-8.64 E35.82795
G1 X-14.536 Y-9.1 E35.85263
G1 X-14.625 Y-9.581 E35.87732
G1 X-14.64 Y-9.883 E35.89258
G1 X-14.64 Y-35.283 E37.1744
G1 X-14.6 Y-35.771 E37.19911
G1 X-14.481 Y-36.246 E37.22382
G1 X-14.287 Y-36.695 E37.2485
G1 X-14.022 Y-37.107 E37.27322
G1 X-13.694 Y-37.47 E37.29791
G1 X-13.311 Y-37.775 E37.32262
G1 X-12.883 Y-38.013 E37.34734
G1 X-12.423 Y-38.179 E37.37201
G1 X-11.942 Y-38.268 E37.3967
G1 X-11.64 Y-38.283 E37.41196
G1 X6.837 Y-38.283 E38.34441
G1 X7.325 Y-38.243 E38.36912
G1 X7.8 Y-38.124 E38.39383
G1 X8.249 Y-37.93 E38.41851
G1 X8.661 Y-37.665 E38.44323
G1 X9.024 Y-37.337 E38.46792
G1 X9.329 Y-36.954 E38.49263
G1 X9.567 Y-36.526 E38.51735
G1 X9.733 Y-36.066 E38.54202
G1 X9.822 Y-35.585 E38.56671
G1 X9.837 Y-35.283 E38.58197
G1 X9.837 Y-30.283 E38.8343
G1 X9.797 Y-29.795 E38.85901
G1 X9.678 Y-29.32 E38.88372
G1 X9.484 Y-28.871 E38.9084
G1 X9.219 Y-28.459 E38.93312
G1 X8.891 Y-28.096 E38.95781
G1 X8.508 Y-27.791 E38.98252
G1 X8.08 Y-27.553 E39.00723
G1 X7.62 Y-27.387 E39.03191
G1 X7.139 Y-27.298 E39.0566
G1 X6.837 Y-27.283 E39.07186
G1 X1.36 Y-27.283 E39.34826
G1 X1.36 Y-20.283 E39.70151
G1 X13.76 Y-20.283 E40.32728
G1 X14.248 Y-20.243 E40.35199
G1 X14.723 Y-20.124 E40.37671
G1 X15.172 Y-19.93 E40.40139
G1 X15.584 Y-19.665 E40.42611
G1 X15.947 Y-19.337 E40.4508
G1 X16.252 Y-18.954 E40.47551
G1 X16.49 Y-18.526 E40.50022
G1 X16.656 Y-18.066 E40.5249
G1 X16.745 Y-17.585 E40.54959
G1 X16.76 Y-17.283 E40.56485
G1 X16.76 Y-9.883 E40.93829
G1 X16.72 Y-9.395 E40.963
G1 X16.601 Y-8.92 E40.98771
G1 X16.407 Y-8.471 E41.01239
G1 X16.142 Y-8.059 E41.03712
G1 X15.814 Y-7.696 E41.06181
G1 X15.431 Y-7.391 E41.08651
G1 X15.003 Y-7.153 E41.11123
G1 X14.543 Y-6.987 E41.13591
G1 X14.062 Y-6.898 E41.16059
G1 X13.76 Y-6.883 E41.17585
G1 X-11.64 Y-6.883 E42.45767
G0 F3600 X-11.64 Y-7.283
G1 F900 X-12.094 Y-7.323 E42.48067
G1 X-12.534 Y-7.441 E42.50366
G1 X-12.946 Y-7.635 E42.52664
G1 X-13.319 Y-7.898 E42.54967
G1 X-13.64 Y-8.221 E42.57265
G1 X-13.899 Y-8.596 E42.59565
G1 X-14.089 Y-9.01 E42.61864
G1 X-14.204 Y-9.451 E42.64164
G1 X-14.24 Y-9.883 E42.66352
G1 X-14.24 Y-35.283 E43.94534
G1 X-14.2 Y-35.737 E43.96834
G1 X-14.082 Y-36.177 E43.99133
G1 X-13.888 Y-36.589 E44.01431
G1 X-13.625 Y-36.962 E44.03734
G1 X-13.302 Y-37.283 E44.06032
G1 X-12.927 Y-37.542 E44.08332
G1 X-12.513 Y-37.732 E44.10631
G1 X-12.072 Y-37.847 E44.12931
G1 X-11.64 Y-37.883 E44.15118
G1 X6.837 Y-37.883 E45.08363
G1 X7.291 Y-37.843 E45.10663
G1 X7.731 Y-37.725 E45.12962
G1 X8.143 Y-37.531 E45.1526
G1 X8.516 Y-37.268 E45.17563
G1 X8.837 Y-36.945 E45.19861
G1 X9.096 Y-36.57 E45.22161
G1 X9.286 Y-36.156 E45.2446
G1 X9.401 Y-35.715 E45.2676
G1 X9.437 Y-35.283 E45.28948
G1 X9.437 Y-30.283 E45.5418
G1 X9.397 Y-29.829 E45.5648
G1 X9.279 Y-29.389 E45.58779
G1 X9.085 Y-28.977 E45.61077
G1 X8.822 Y-28.604 E45.63381
G1 X8.499 Y-28.283 E45.65679
G1 X8.124 Y-28.024 E45.67979
G1 X7.71 Y-27.834 E45.70278
G1 X7.269 Y-27.719 E45.72577
G1 X6.837 Y-27.683 E45.74765
G1 X0.96 Y-27.683 E46.04424
G1 X0.96 Y-19.883 E46.43787
G1 X13.76 Y-19.883 E47.08382
G1 X14.214 Y-19.843 E47.10682
G1 X14.654 Y-19.725 E47.12981
G1 X15.066 Y-19.531 E47.15279
G1 X15.439 Y-19.268 E47.17582
G1 X15.76 Y-18.945 E47.1988
G1 X16.019 Y-18.57 E47.2218
G1 X16.209 Y-18.156 E47.24479
G1 X16.324 Y-17.715 E47.26779
G1 X16.36 Y-17.283 E47.28967
G1 X16.36 Y-9.883 E47.66311
G1 X16.32 Y-9.429 E47.68611
G1 X16.202 Y-8.989 E47.7091
G1 X16.008 Y-8.577 E47.73208
G1 X15.745 Y-8.204 E47.75511
G1 X15.422 Y-7.883 E47.7781
G1 X15.047 Y-7.624 E47.80109
G1 X14.633 Y-7.434 E47.82408
G1 X14.192 Y-7.319 E47.84708
G1 X13.76 Y-7.283 E47.86896
G1 X-11.64 Y-7.283 E49.15078
G0 F3600 X-11.64 Y-7.683
G1 F900 X-12.057 Y-7.723 E49.17192
G1 X-12.459 Y-7.841 E49.19306
G1 X-12.831 Y-8.034 E49.21421
G1 X-13.16 Y-8.293 E49.23534
G1 X-13.434 Y-8.61 E49.25649
G1 X-13.643 Y-8.973 E49.27762
G1 X-13.779 Y-9.37 E49.2988
G1 X-13.84 Y-9.883 E49.32487
G1 X-13.84 Y-35.283 E50.60669
G1 X-13.8 Y-35.7 E50.62783
G1 X-13.682 Y-36.102 E50.64897
G1 X-13.489 Y-36.474 E50.67012
G1 X-13.23 Y-36.803 E50.69125
G1 X-12.913 Y-37.077 E50.7124
G1 X-12.55 Y-37.286 E50.73354
G1 X-12.153 Y-37.422 E50.75472
G1 X-11.64 Y-37.483 E50.78079
G1 X6.837 Y-37.483 E51.71323
G1 X7.254 Y-37.443 E51.73438
G1 X7.656 Y-37.325 E51.75552
G1 X8.028 Y-37.132 E51.77667
G1 X8.357 Y-36.873 E51.7978
G1 X8.631 Y-36.556 E51.81894
G1 X8.84 Y-36.193 E51.84008
G1 X8.976 Y-35.796 E51.86126
