;FLAVOR:Marlin
;TIME:9394
;Filament used: 4.20922m
;Layer height: 0.15
;Generated with Cura_SteamEngine 3.2.1
M104 S210
M109 S210
M82 ;absolute extrusion mode
G28 ;Home
G1 Z15.0 F6000 ;Move the platform down 15mm
;Prime the extruder
G92 E0
G1 F200 E3
G92 E0
;LAYER_COUNT:212
;LAYER:0
M107
G0 F3600 X36.154 Y-20.104 Z0.3
;TYPE:SKIRT
G1 F900 X36.785 Y-20.064 E0.03191
G1 X37.406 Y-19.945 E0.06382
G1 X38.006 Y-19.748 E0.09569
G1 X38.578 Y-19.477 E0.12763
G1 X39.11 Y-19.137 E0.15949
G1 X39.595 Y-18.731 E0.19141
G1 X40.025 Y-18.268 E0.2233
G1 X40.394 Y-17.754 E0.25523
G1 X40.694 Y-17.198 E0.28711
G1 X40.922 Y-16.609 E0.31898
G1 X41.074 Y-15.995 E0.35091
G1 X41.154 Y-15.104 E0.39605
G1 X41.154 Y16.696 E2.00085
G1 X41.114 Y17.327 E2.03276
G1 X40.995 Y17.948 E2.06466
G1 X40.798 Y18.548 E2.09653
G1 X40.527 Y19.12 E2.12848
G1 X40.187 Y19.652 E2.16034
G1 X39.781 Y20.137 E2.19226
G1 X39.318 Y20.567 E2.22415
G1 X38.804 Y20.936 E2.25608
G1 X38.248 Y21.236 E2.28796
G1 X37.659 Y21.464 E2.31983
G1 X37.045 Y21.616 E2.35175
G1 X36.154 Y21.696 E2.3969
G1 X-38.846 Y21.696 E6.1818
G1 X-39.477 Y21.656 E6.2137
G1 X-40.098 Y21.537 E6.24561
G1 X-40.698 Y21.34 E6.27748
G1 X-41.27 Y21.069 E6.30943
G1 X-41.802 Y20.729 E6.34129
G1 X-42.287 Y20.323 E6.37321
G1 X-42.717 Y19.86 E6.40509
G1 X-43.086 Y19.346 E6.43703
G1 X-43.386 Y18.79 E6.46891
G1 X-43.614 Y18.201 E6.50078
G1 X-43.766 Y17.587 E6.5327
G1 X-43.846 Y16.696 E6.57785
G1 X-43.846 Y-15.104 E8.18264
G1 X-43.806 Y-15.735 E8.21455
G1 X-43.687 Y-16.356 E8.24646
G1 X-43.49 Y-16.956 E8.27833
G1 X-43.219 Y-17.528 E8.31027
G1 X-42.879 Y-18.06 E8.34214
G1 X-42.473 Y-18.545 E8.37405
G1 X-42.01 Y-18.975 E8.40594
G1 X-41.496 Y-19.344 E8.43787
G1 X-40.94 Y-19.644 E8.46976
G1 X-40.351 Y-19.872 E8.50163
G1 X-39.737 Y-20.024 E8.53355
G1 X-38.846 Y-20.104 E8.5787
G1 X36.154 Y-20.104 E12.36359
G0 F3600 X36.154 Y-19.704
G1 F900 X36.759 Y-19.664 E12.39419
G1 X37.353 Y-19.545 E12.42476
G1 X37.927 Y-19.349 E12.45537
G1 X38.47 Y-19.078 E12.486
G1 X38.973 Y-18.739 E12.51661
G1 X39.426 Y-18.337 E12.54717
G1 X39.823 Y-17.879 E12.57776
G1 X40.156 Y-17.372 E12.60837
G1 X40.42 Y-16.826 E12.63898
G1 X40.609 Y-16.25 E12.66957
G1 X40.721 Y-15.654 E12.70018
G1 X40.754 Y-15.104 E12.72798
G1 X40.754 Y16.696 E14.33278
G1 X40.714 Y17.301 E14.36338
G1 X40.595 Y17.895 E14.39395
G1 X40.399 Y18.469 E14.42456
G1 X40.128 Y19.012 E14.45518
G1 X39.789 Y19.515 E14.48579
G1 X39.387 Y19.968 E14.51636
G1 X38.929 Y20.365 E14.54695
G1 X38.422 Y20.698 E14.57756
G1 X37.876 Y20.962 E14.60816
G1 X37.3 Y21.151 E14.63876
G1 X36.704 Y21.263 E14.66936
G1 X36.154 Y21.296 E14.69717
G1 X-38.846 Y21.296 E18.48206
G1 X-39.451 Y21.256 E18.51266
G1 X-40.045 Y21.137 E18.54323
G1 X-40.619 Y20.941 E18.57384
G1 X-41.162 Y20.67 E18.60447
G1 X-41.665 Y20.331 E18.63508
G1 X-42.118 Y19.929 E18.66564
G1 X-42.515 Y19.471 E18.69623
G1 X-42.848 Y18.964 E18.72684
G1 X-43.112 Y18.418 E18.75745
G1 X-43.301 Y17.842 E18.78804
G1 X-43.413 Y17.246 E18.81865
G1 X-43.446 Y16.696 E18.84645
G1 X-43.446 Y-15.104 E20.45125
G1 X-43.406 Y-15.709 E20.48185
G1 X-43.287 Y-16.303 E20.51242
G1 X-43.091 Y-16.877 E20.54303
G1 X-42.82 Y-17.42 E20.57365
G1 X-42.481 Y-17.923 E20.60426
G1 X-42.079 Y-18.376 E20.63483
G1 X-41.621 Y-18.773 E20.66542
G1 X-41.114 Y-19.106 E20.69603
G1 X-40.568 Y-19.37 E20.72663
G1 X-39.992 Y-19.559 E20.75723
G1 X-39.396 Y-19.671 E20.78783
G1 X-38.846 Y-19.704 E20.81564
G1 X36.154 Y-19.704 E24.60053
G0 F3600 X36.154 Y-19.304
G1 F900 X36.732 Y-19.264 E24.62977
G1 X37.299 Y-19.145 E24.65901
G1 X37.844 Y-18.949 E24.68824
G1 X38.357 Y-18.68 E24.71747
G1 X38.828 Y-18.343 E24.7467
G1 X39.248 Y-17.944 E24.77593
G1 X39.61 Y-17.491 E24.80519
G1 X39.905 Y-16.993 E24.8344
G1 X40.13 Y-16.459 E24.86365
G1 X40.278 Y-15.899 E24.89288
G1 X40.354 Y-15.104 E24.93318
G1 X40.354 Y16.696 E26.53798
G1 X40.314 Y17.274 E26.56722
G1 X40.195 Y17.841 E26.59645
G1 X39.999 Y18.386 E26.62568
G1 X39.73 Y18.899 E26.65491
G1 X39.393 Y19.37 E26.68414
G1 X38.994 Y19.79 E26.71338
G1 X38.541 Y20.152 E26.74264
G1 X38.043 Y20.447 E26.77185
G1 X37.509 Y20.672 E26.80109
G1 X36.949 Y20.82 E26.83032
G1 X36.154 Y20.896 E26.87063
G1 X-38.846 Y20.896 E30.65552
G1 X-39.424 Y20.856 E30.68476
G1 X-39.991 Y20.737 E30.714
G1 X-40.536 Y20.541 E30.74323
G1 X-41.049 Y20.272 E30.77246
G1 X-41.52 Y19.935 E30.80169
G1 X-41.94 Y19.536 E30.83092
G1 X-42.302 Y19.083 E30.86019
G1 X-42.597 Y18.585 E30.8894
G1 X-42.822 Y18.051 E30.91864
G1 X-42.97 Y17.491 E30.94787
G1 X-43.046 Y16.696 E30.98817
G1 X-43.046 Y-15.104 E32.59297
G1 X-43.006 Y-15.682 E32.62221
G1 X-42.887 Y-16.249 E32.65144
G1 X-42.691 Y-16.794 E32.68067
G1 X-42.422 Y-17.307 E32.7099
G1 X-42.085 Y-17.778 E32.73913
G1 X-41.686 Y-18.198 E32.76837
G1 X-41.233 Y-18.56 E32.79763
G1 X-40.735 Y-18.855 E32.82684
G1 X-40.201 Y-19.08 E32.85608
G1 X-39.641 Y-19.228 E32.88531
G1 X-38.846 Y-19.304 E32.92562
G1 X36.154 Y-19.304 E36.71051
G0 F3600 X36.154 Y-18.904
G1 F900 X36.704 Y-18.864 E36.73834
G1 X37.242 Y-18.745 E36.76615
G1 X37.757 Y-18.549 E36.79396
G1 X38.238 Y-18.281 E36.82175
G1 X38.676 Y-17.947 E36.84954
G1 X39.06 Y-17.552 E36.87734
G1 X39.384 Y-17.106 E36.90516
G1 X39.639 Y-16.618 E36.93295
G1 X39.822 Y-16.098 E36.96077
G1 X39.927 Y-15.557 E36.98858
G1 X39.954 Y-15.104 E37.01148
G1 X39.954 Y16.696 E38.61628
G1 X39.914 Y17.246 E38.64411
G1 X39.795 Y17.784 E38.67191
G1 X39.599 Y18.299 E38.69972
G1 X39.331 Y18.78 E38.72751
G1 X38.997 Y19.218 E38.75531
G1 X38.602 Y19.602 E38.78311
G1 X38.156 Y19.926 E38.81093
G1 X37.668 Y20.181 E38.83871
G1 X37.148 Y20.364 E38.86653
G1 X36.607 Y20.469 E38.89435
G1 X36.154 Y20.496 E38.91725
G1 X-38.846 Y20.496 E42.70214
G1 X-39.396 Y20.456 E42.72997
G1 X-39.934 Y20.337 E42.75778
G1 X-40.449 Y20.141 E42.78559
G1 X-40.93 Y19.873 E42.81338
G1 X-41.368 Y19.539 E42.84117
G1 X-41.752 Y19.144 E42.86897
G1 X-42.076 Y18.698 E42.89679
G1 X-42.331 Y18.21 E42.92458
G1 X-42.514 Y17.69 E42.9524
G1 X-42.619 Y17.149 E42.98021
G1 X-42.646 Y16.696 E43.00311
G1 X-42.646 Y-15.104 E44.60791
G1 X-42.606 Y-15.654 E44.63574
G1 X-42.487 Y-16.192 E44.66354
G1 X-42.291 Y-16.707 E44.69135
G1 X-42.023 Y-17.188 E44.71914
G1 X-41.689 Y-17.626 E44.74694
G1 X-41.294 Y-18.01 E44.77474
G1 X-40.848 Y-18.334 E44.80256
G1 X-40.36 Y-18.589 E44.83034
G1 X-39.84 Y-18.772 E44.85816
G1 X-39.299 Y-18.877 E44.88597
G1 X-38.846 Y-18.904 E44.90888
G1 X36.154 Y-18.904 E48.69377
G0 F3600 X36.154 Y-18.504
G1 F900 X36.674 Y-18.464 E48.72009
G1 X37.181 Y-18.345 E48.74637
G1 X37.664 Y-18.15 E48.77266
G1 X38.112 Y-17.884 E48.79895
G1 X38.514 Y-17.552 E48.82527
G1 X38.86 Y-17.162 E48.85158
G1 X39.143 Y-16.724 E48.87789
G1 X39.356 Y-16.249 E48.90416
G1 X39.493 Y-15.746 E48.93047
G1 X39.554 Y-15.104 E48.96302
G1 X39.554 Y16.696 E50.56781
G1 X39.514 Y17.216 E50.59413
G1 X39.395 Y17.723 E50.62041
G1 X39.2 Y18.206 E50.6467
G1 X38.934 Y18.654 E50.67299
G1 X38.602 Y19.056 E50.6993
G1 X38.212 Y19.402 E50.72561
G1 X37.774 Y19.685 E50.75193
G1 X37.299 Y19.898 E50.7782
G1 X36.796 Y20.035 E50.80451
G1 X36.154 Y20.096 E50.83706
G1 X-38.846 Y20.096 E54.62195
G1 X-39.366 Y20.056 E54.64827
G1 X-39.873 Y19.937 E54.67455
G1 X-40.356 Y19.742 E54.70084
G1 X-40.804 Y19.476 E54.72713
G1 X-41.206 Y19.144 E54.75344
G1 X-41.552 Y18.754 E54.77975
G1 X-41.835 Y18.316 E54.80607
G1 X-42.048 Y17.841 E54.83234
G1 X-42.185 Y17.338 E54.85865
G1 X-42.246 Y16.696 E54.8912
G1 X-42.246 Y-15.104 E56.49599
G1 X-42.206 Y-15.624 E56.52231
G1 X-42.087 Y-16.131 E56.54859
G1 X-41.892 Y-16.614 E56.57488
G1 X-41.626 Y-17.062 E56.60117
G1 X-41.294 Y-17.464 E56.62748
G1 X-40.904 Y-17.81 E56.65379
G1 X-40.466 Y-18.093 E56.68011
G1 X-39.991 Y-18.306 E56.70638
G1 X-39.488 Y-18.443 E56.73269
G1 X-38.846 Y-18.504 E56.76523
G1 X36.154 Y-18.504 E60.55013
G0 F3600 X36.154 Y-18.104
G1 F900 X36.642 Y-18.064 E60.57484
G1 X37.117 Y-17.945 E60.59955
G1 X37.566 Y-17.751 E60.62424
G1 X37.978 Y-17.486 E60.64896
G1 X38.341 Y-17.158 E60.67365
G1 X38.646 Y-16.775 E60.69836
G1 X38.884 Y-16.347 E60.72307
G1 X39.05 Y-15.887 E60.74775
G1 X39.139 Y-15.406 E60.77243
G1 X39.154 Y-15.104 E60.78769
G1 X39.154 Y16.696 E62.39249
G1 X39.114 Y17.184 E62.4172
G1 X38.995 Y17.659 E62.44191
G1 X38.801 Y18.108 E62.4666
G1 X38.536 Y18.52 E62.49132
G1 X38.208 Y18.883 E62.51601
G1 X37.825 Y19.188 E62.54071
G1 X37.397 Y19.426 E62.56543
G1 X36.937 Y19.592 E62.59011
G1 X36.456 Y19.681 E62.61479
G1 X36.154 Y19.696 E62.63005
G1 X-38.846 Y19.696 E66.41495
G1 X-39.334 Y19.656 E66.43966
G1 X-39.809 Y19.537 E66.46437
G1 X-40.258 Y19.343 E66.48906
G1 X-40.67 Y19.078 E66.51378
G1 X-41.033 Y18.75 E66.53847
G1 X-41.338 Y18.367 E66.56317
G1 X-41.576 Y17.939 E66.58789
G1 X-41.742 Y17.479 E66.61257
G1 X-41.831 Y16.998 E66.63725
G1 X-41.846 Y16.696 E66.65251
G1 X-41.846 Y-15.104 E68.25731
G1 X-41.806 Y-15.592 E68.28202
G1 X-41.687 Y-16.067 E68.30673
G1 X-41.493 Y-16.516 E68.33141
G1 X-41.228 Y-16.928 E68.35614
G1 X-40.9 Y-17.291 E68.38083
G1 X-40.517 Y-17.596 E68.40553
G1 X-40.089 Y-17.834 E68.43025
G1 X-39.629 Y-18 E68.45493
G1 X-39.148 Y-18.089 E68.47961
G1 X-38.846 Y-18.104 E68.49487
G1 X36.154 Y-18.104 E72.27977
G0 F3600 X36.154 Y-17.704
G1 F900 X36.608 Y-17.664 E72.30277
G1 X37.048 Y-17.546 E72.32576
G1 X37.46 Y-17.352 E72.34874
G1 X37.833 Y-17.089 E72.37177
G1 X38.154 Y-16.766 E72.39475
G1 X38.413 Y-16.391 E72.41775
G1 X38.603 Y-15.977 E72.44074
G1 X38.718 Y-15.536 E72.46374
G1 X38.754 Y-15.104 E72.48562
G1 X38.754 Y16.696 E74.09041
G1 X38.714 Y17.15 E74.11341
G1 X38.596 Y17.59 E74.1364
G1 X38.402 Y18.002 E74.15938
G1 X38.139 Y18.375 E74.18242
G1 X37.816 Y18.696 E74.2054
G1 X37.441 Y18.955 E74.2284
G1 X37.027 Y19.145 E74.25138
G1 X36.586 Y19.26 E74.27438
G1 X36.154 Y19.296 E74.29626
G1 X-38.846 Y19.296 E78.08116
G1 X-39.3 Y19.256 E78.10416
G1 X-39.74 Y19.138 E78.12715
G1 X-40.152 Y18.944 E78.15013
G1 X-40.525 Y18.681 E78.17316
G1 X-40.846 Y18.358 E78.19614
G1 X-41.105 Y17.983 E78.21914
G1 X-41.295 Y17.569 E78.24213
G1 X-41.41 Y17.128 E78.26513
G1 X-41.446 Y16.696 E78.287
G1 X-41.446 Y-15.104 E79.8918
G1 X-41.406 Y-15.558 E79.9148
G1 X-41.288 Y-15.998 E79.93779
G1 X-41.094 Y-16.41 E79.96077
G1 X-40.831 Y-16.783 E79.9838
G1 X-40.508 Y-17.104 E80.00679
G1 X-40.133 Y-17.363 E80.02978
G1 X-39.719 Y-17.553 E80.05277
G1 X-39.278 Y-17.668 E80.07577
G1 X-38.846 Y-17.704 E80.09765
G1 X36.154 Y-17.704 E83.88255
G0 F3600 X36.154 Y-17.304
G1 F900 X36.571 Y-17.264 E83.90369
G1 X36.973 Y-17.146 E83.92483
G1 X37.345 Y-16.953 E83.94598
G1 X37.674 Y-16.694 E83.96711
G1 X37.948 Y-16.377 E83.98825
G1 X38.157 Y-16.014 E84.00939
G1 X38.293 Y-15.617 E84.03057
G1 X38.354 Y-15.104 E84.05664
G1 X38.354 Y16.696 E85.66144
G1 X38.314 Y17.113 E85.68258
G1 X38.196 Y17.515 E85.70372
G1 X38.003 Y17.887 E85.72487
G1 X37.744 Y18.216 E85.746
G1 X37.427 Y18.49 E85.76715
G1 X37.064 Y18.699 E85.78829
G1 X36.667 Y18.835 E85.80946
G1 X36.154 Y18.896 E85.83553
G1 X-38.846 Y18.896 E89.62043
G1 X-39.263 Y18.856 E89.64157
G1 X-39.665 Y18.738 E89.66272
G1 X-40.037 Y18.545 E89.68386
G1 X-40.366 Y18.286 E89.705
G1 X-40.64 Y17.969 E89.72614
G1 X-40.849 Y17.606 E89.74728
G1 X-40.985 Y17.209 E89.76846
G1 X-41.046 Y16.696 E89.79453
G1 X-41.046 Y-15.104 E91.39932
G1 X-41.006 Y-15.521 E91.42046
G1 X-40.888 Y-15.923 E91.44161
G1 X-40.695 Y-16.295 E91.46276
G1 X-40.436 Y-16.624 E91.48389
G1 X-40.119 Y-16.898 E91.50503
G1 X-39.756 Y-17.107 E91.52617
G1 X-39.359 Y-17.243 E91.54735
G1 X-38.846 Y-17.304 E91.57342
G1 X36.154 Y-17.304 E95.35832
G0 F3600 X36.154 Y-16.904
G1 F900 X36.531 Y-16.864 E95.37745
G1 X36.891 Y-16.746 E95.39657
G1 X37.218 Y-16.556 E95.41565
G1 X37.499 Y-16.301 E95.4348
G1 X37.719 Y-15.992 E95.45395
G1 X37.871 Y-15.645 E95.47306
G1 X37.954 Y-15.104 E95.50068
G1 X37.954 Y16.696 E97.10548
G1 X37.914 Y17.073 E97.12461
G1 X37.796 Y17.433 E97.14373
G1 X37.606 Y17.76 E97.16282
G1 X37.351 Y18.041 E97.18197
G1 X37.042 Y18.261 E97.20111
G1 X36.695 Y18.413 E97.22023
G1 X36.154 Y18.496 E97.24785
G1 X-38.846 Y18.496 E101.03275
G1 X-39.223 Y18.456 E101.05188
G1 X-39.583 Y18.338 E101.071
G1 X-39.91 Y18.148 E101.09008
G1 X-40.191 Y17.893 E101.10923
G1 X-40.411 Y17.584 E101.12837
G1 X-40.563 Y17.237 E101.14749
G1 X-40.646 Y16.696 E101.17511
G1 X-40.646 Y-15.104 E102.77991
G1 X-40.606 Y-15.481 E102.79904
G1 X-40.488 Y-15.841 E102.81816
G1 X-40.298 Y-16.168 E102.83725
G1 X-40.043 Y-16.449 E102.85639
G1 X-39.734 Y-16.669 E102.87554
G1 X-39.387 Y-16.821 E102.89465
G1 X-38.846 Y-16.904 E102.92228
G1 X36.154 Y-16.904 E106.70717
G0 F3600 X36.154 Y-16.504
G1 F900 X36.486 Y-16.464 E106.72405
G1 X36.798 Y-16.347 E106.74086
G1 X37.075 Y-16.159 E106.75776
G1 X37.298 Y-15.911 E106.77459
G1 X37.457 Y-15.617 E106.79146
G1 X37.541 Y-15.293 E106.80835
G1 X37.554 Y-15.104 E106.81791
G1 X37.554 Y16.696 E108.42271
G1 X37.514 Y17.028 E108.43958
G1 X37.397 Y17.34 E108.4564
G1 X37.209 Y17.617 E108.47329
G1 X36.961 Y17.84 E108.49012
G1 X36.667 Y17.999 E108.50699
G1 X36.343 Y18.083 E108.52388
G1 X36.154 Y18.096 E108.53344
G1 X-38.846 Y18.096 E112.31834
G1 X-39.178 Y18.056 E112.33522
G1 X-39.49 Y17.939 E112.35203
G1 X-39.767 Y17.751 E112.36893
G1 X-39.99 Y17.503 E112.38576
G1 X-40.149 Y17.209 E112.40262
G1 X-40.233 Y16.885 E112.41952
G1 X-40.246 Y16.696 E112.42908
G1 X-40.246 Y-15.104 E114.03387
G1 X-40.206 Y-15.436 E114.05075
G1 X-40.089 Y-15.748 E114.06756
G1 X-39.901 Y-16.025 E114.08446
G1 X-39.653 Y-16.248 E114.10129
G1 X-39.359 Y-16.407 E114.11816
G1 X-39.035 Y-16.491 E114.13505
G1 X-38.846 Y-16.504 E114.14461
G1 X36.154 Y-16.504 E117.92951
G0 F3600 X36.154 Y-16.104
G1 F900 X36.433 Y-16.064 E117.94373
G1 X36.69 Y-15.948 E117.95796
G1 X36.905 Y-15.765 E117.97221
G1 X37.059 Y-15.529 E117.98643
G1 X37.142 Y-15.259 E118.00068
G1 X37.154 Y-15.104 E118.00853
G1 X37.154 Y16.696 E119.61333
G1 X37.114 Y16.975 E119.62755
G1 X36.998 Y17.232 E119.64178
G1 X36.815 Y17.447 E119.65603
G1 X36.579 Y17.601 E119.67025
G1 X36.309 Y17.684 E119.6845
G1 X36.154 Y17.696 E119.69235
G1 X-38.846 Y17.696 E123.47725
G1 X-39.125 Y17.656 E123.49147
G1 X-39.382 Y17.54 E123.5057
G1 X-39.597 Y17.357 E123.51995
G1 X-39.751 Y17.121 E123.53417
G1 X-39.834 Y16.851 E123.54842
G1 X-39.846 Y16.696 E123.55627
G1 X-39.846 Y-15.104 E125.16107
G1 X-39.806 Y-15.383 E125.17529
G1 X-39.69 Y-15.64 E125.18952
G1 X-39.507 Y-15.855 E125.20377
G1 X-39.271 Y-16.009 E125.21799
G1 X-39.001 Y-16.092 E125.23224
G1 X-38.846 Y-16.104 E125.24009
G1 X36.154 Y-16.104 E129.02499
G0 F3600 X36.154 Y-15.704
G1 F900 X36.369 Y-15.664 E129.03602
G1 X36.555 Y-15.551 E129.04701
G1 X36.688 Y-15.378 E129.05802
G1 X36.754 Y-15.104 E129.07224
G1 X36.754 Y16.696 E130.67704
G1 X36.714 Y16.911 E130.68807
G1 X36.601 Y17.097 E130.69906
G1 X36.428 Y17.23 E130.71007
G1 X36.154 Y17.296 E130.72429
G1 X-38.846 Y17.296 E134.50919
G1 X-39.061 Y17.256 E134.52023
G1 X-39.247 Y17.143 E134.53121
G1 X-39.38 Y16.97 E134.54222
G1 X-39.446 Y16.696 E134.55645
G1 X-39.446 Y-15.104 E136.16124
G1 X-39.406 Y-15.319 E136.17228
G1 X-39.293 Y-15.505 E136.18326
G1 X-39.12 Y-15.638 E136.19427
G1 X-38.846 Y-15.704 E136.2085
G1 X36.154 Y-15.704 E139.99339
G0 F3600 X36.154 Y-15.304
G1 F900 X36.273 Y-15.265 E139.99971
G1 X36.354 Y-15.104 E140.00881
G1 X36.354 Y16.696 E141.61361
G1 X36.315 Y16.815 E141.61993
G1 X36.154 Y16.896 E141.62902
G1 X-38.846 Y16.896 E145.41392
G1 X-38.965 Y16.857 E145.42024
G1 X-39.046 Y16.696 E145.42933
G1 X-39.046 Y-15.104 E147.03413
G1 X-39.007 Y-15.223 E147.04045
G1 X-38.846 Y-15.304 E147.04954
G1 X36.154 Y-15.304 E150.83444
G1 F30000 E146.73444
G0 F3600 X35.54 Y-14.49
G0 X16.807 Y-7.972
G0 X16.012 Y-7.821
G0 X16.078 Y-8.316
;TYPE:WALL-OUTER
G1 F30000 E150.83444
G1 F900 X16.382 Y-8.33 E150.8498
G1 X16.678 Y-8.394 E150.86508
G1 X16.959 Y-8.507 E150.88037
G1 X17.217 Y-8.666 E150.89566
G1 X17.445 Y-8.866 E150.91097
G1 X17.635 Y-9.103 E150.9263
G1 X17.784 Y-9.367 E150.94159
G1 X17.884 Y-9.652 E150.95684
G1 X17.936 Y-9.952 E150.9722
G1 X17.936 Y-10.255 E150.98749
G1 X17.884 Y-10.555 E151.00286
G1 X17.784 Y-10.84 E151.0181
G1 X17.635 Y-11.104 E151.0334
G1 X17.445 Y-11.341 E151.04873
G1 X17.217 Y-11.541 E151.06403
G1 X16.959 Y-11.7 E151.07933
G1 X16.678 Y-11.813 E151.09461
G1 X16.382 Y-11.877 E151.10989
